reference/Neutral A7s3.cube
TITLE "Generated by Resolve"
LUT_3D_SIZE 33
0.0137789 0.013077 0.013138
0.0137789 0.013077 0.013138
0.0137789 0.013077 0.013138
0.0138857 0.0132906 0.013077
0.0332189 0.0137484 0.016556
0.0507057 0.0136721 0.0207218
0.0793469 0.0142214 0.0264439
0.110811 0.0154116 0.032105
0.143053 0.0152285 0.0384222
0.181277 0.0152285 0.0463264
0.223713 0.0151064 0.0554055
0.269917 0.0148623 0.06598
0.318029 0.0150149 0.0729534
0.370535 0.0135653 0.0902419
0.425055 0.0134127 0.112108
0.481407 0.0152895 0.1346
0.540887 0.0183261 0.159319
0.603876 0.02121 0.186831
0.670939 0.0236362 0.219318
0.743297 0.0233158 0.256519
0.821775 0.0227817 0.298451
0.893965 0.0228885 0.343206
0.954772 0.0246433 0.388113
0.984878 0.0307469 0.430243
0.985611 0.0459144 0.470695
0.986023 0.0619669 0.513802
0.986587 0.0676738 0.558526
0.987076 0.0730602 0.600122
0.987503 0.0782025 0.637613
0.987854 0.0831617 0.670787
0.988403 0.102144 0.703517
0.988632 0.137865 0.736309
0.988449 0.173342 0.765454
0.0137789 0.013077 0.013138
0.0137789 0.013077 0.013138
0.0137789 0.013077 0.013138
0.0137484 0.0132906 0.013077
0.0319219 0.0137026 0.0159457
0.0488899 0.0137026 0.0201572
0.0772869 0.0141604 0.0260471
0.109361 0.0153964 0.0317082
0.141741 0.0152285 0.0380713
0.180529 0.0152438 0.0461128
0.223713 0.0151064 0.0554055
0.269917 0.0148623 0.06598
0.318029 0.0150149 0.0729534
0.370535 0.0135653 0.0902419
0.425055 0.0134127 0.112108
0.481407 0.0152895 0.1346
0.540887 0.0183261 0.159319
0.603311 0.0211948 0.186496
0.668986 0.0237278 0.217929
0.739681 0.023331 0.254292
0.816922 0.0228428 0.295003
0.889052 0.0229343 0.338827
0.950332 0.0243839 0.383276
0.984741 0.0297246 0.425162
0.985611 0.0430152 0.464332
0.985916 0.0610513 0.505318
0.986465 0.0666056 0.548959
0.986954 0.0717784 0.589517
0.987427 0.0766766 0.626291
0.987747 0.0814679 0.658167
0.988006 0.085771 0.685618
0.988571 0.11603 0.716121
0.988586 0.145266 0.742657
0.0137789 0.013077 0.013138
0.0137789 0.013077 0.013138
0.0137789 0.013077 0.013138
0.0137331 0.013138 0.013077
0.0281224 0.0135653 0.0138705
0.0408179 0.0137484 0.0171359
0.0648661 0.0138552 0.0224613
0.0989548 0.015259 0.0292058
0.132235 0.0156558 0.0358282
0.171298 0.0152132 0.0434882
0.215457 0.0151064 0.0528115
0.263203 0.0149233 0.0636149
0.313252 0.0149996 0.0711223
0.367559 0.013611 0.088304
0.423316 0.0133974 0.110994
0.478813 0.015198 0.132967
0.537118 0.0182498 0.157275
0.599115 0.0211185 0.18381
0.664988 0.0239719 0.215228
0.735012 0.0234836 0.251026
0.811994 0.0229801 0.291463
0.884565 0.0230259 0.33547
0.946426 0.0242008 0.379339
0.984588 0.0289158 0.421286
0.985672 0.0411994 0.460166
0.986038 0.0605173 0.499748
0.986526 0.0659037 0.542748
0.987045 0.0710002 0.582315
0.987411 0.0756847 0.617761
0.98764 0.0800641 0.649058
0.9879 0.0840772 0.675944
0.988251 0.10132 0.701564
0.98854 0.127337 0.726604
0.0133364 0.0142214 0.0131075
0.0134279 0.0141604 0.0131228
0.013901 0.013901 0.013077
0.0140993 0.0140688 0.0130922
0.0247196 0.0155795 0.0134127
0.0344854 0.0154421 0.014847
0.0519875 0.014786 0.0178073
0.088014 0.01561 0.0256046
0.123232 0.0164797 0.0335851
0.161868 0.0151522 0.0408026
0.207263 0.0150454 0.0501869
0.255802 0.0148623 0.060914
0.309453 0.0147402 0.0735332
0.361959 0.0142061 0.0849012
0.41828 0.0132448 0.10753
0.474388 0.0149233 0.130053
0.53286 0.0183261 0.154421
0.595193 0.0210727 0.180896
0.66096 0.0241703 0.212024
0.730755 0.023621 0.247776
0.807431 0.0231022 0.288045
0.88011 0.0230716 0.331518
0.94229 0.0240482 0.375616
0.984436 0.0281682 0.417212
0.985611 0.0393225 0.45568
0.985962 0.0588388 0.494163
0.986481 0.0651713 0.536126
0.986954 0.0700847 0.574884
0.987213 0.0746319 0.609735
0.987533 0.0787671 0.640284
0.987915 0.0827344 0.666606
0.988067 0.0880751 0.688411
0.988495 0.111879 0.712123
0.0141909 0.0345464 0.0200809
0.0144656 0.0340581 0.018677
0.017319 0.032639 0.0146639
0.0250095 0.0319219 0.0152895
0.0318151 0.03299 0.0156405
0.0416266 0.0327306 0.0177157
0.0576944 0.0319982 0.0192874
0.0899062 0.0264744 0.0211032
0.127779 0.0224765 0.0276188
0.165591 0.0213016 0.0355688
0.207767 0.0176699 0.0431525
0.252491 0.0146944 0.0534066
0.31104 0.0145571 0.0657664
0.366537 0.0138399 0.0818341
0.422614 0.0131228 0.105226
0.474601 0.0155032 0.120821
0.533242 0.0198825 0.147189
0.595438 0.0223392 0.173907
0.661189 0.0252995 0.205051
0.730953 0.0246738 0.241077
0.807904 0.0240177 0.281926
0.880629 0.0236667 0.325948
0.94287 0.0243076 0.37084
0.984283 0.0280308 0.413245
0.98555 0.0383612 0.451835
0.985962 0.0575723 0.490898
0.986465 0.0652018 0.533089
0.986938 0.0701152 0.572732
0.987198 0.0746929 0.607736
0.987533 0.0788281 0.638712
0.98793 0.082826 0.66537
0.988174 0.0891127 0.687861
0.98851 0.112947 0.711666
0.0149538 0.0551003 0.0243229
0.0153048 0.0545052 0.0238956
0.0168917 0.0514076 0.0174563
0.0265812 0.0480507 0.0167544
0.0353094 0.0502937 0.0173495
0.0472114 0.0505531 0.0183871
0.0691844 0.0490578 0.0218814
0.0955825 0.0451057 0.025391
0.12639 0.0378119 0.0260624
0.164691 0.0284428 0.0279545
0.212467 0.0227207 0.0382391
0.259724 0.0186313 0.0473182
0.307027 0.010956 0.0551461
0.361334 0.0138247 0.0719768
0.423667 0.012726 0.0941482
0.479728 0.0154421 0.119539
0.533242 0.0204929 0.138979
0.595483 0.0235904 0.166735
0.661357 0.0264744 0.197787
0.73106 0.0257725 0.23415
0.808392 0.024979 0.275669
0.881224 0.0243839 0.319982
0.943313 0.0246433 0.365881
0.984115 0.0280156 0.409094
0.985473 0.0374151 0.447776
0.985946 0.0563516 0.487739
0.986419 0.0652323 0.530327
0.986908 0.070161 0.570382
0.987182 0.0747539 0.605722
0.987518 0.0789044 0.63711
0.98793 0.0829023 0.664118
0.988159 0.0901198 0.687129
0.98851 0.114031 0.711192
0.0140078 0.0851606 0.026627
0.0143282 0.0844739 0.0260929
0.0165866 0.0807965 0.0221866
0.02327 0.077348 0.0174716
0.0355535 0.0780957 0.0184787
0.0505226 0.0785077 0.018555
0.0721294 0.0782483 0.0195926
0.105348 0.0749676 0.0243839
0.141497 0.0635996 0.0320134
0.170748 0.0564431 0.0321355
0.211337 0.0438239 0.0303655
0.260212 0.0246586 0.0315709
0.315373 0.0171206 0.0471351
0.367285 0.00993362 0.0561379
0.414862 0.00836194 0.076463
0.47686 0.0158541 0.105074
0.539528 0.0209964 0.136416
0.595239 0.0253147 0.157305
0.661173 0.0279088 0.188785
0.731228 0.0271763 0.225299
0.808804 0.0262303 0.26743
0.881758 0.0253452 0.312474
0.943862 0.0251621 0.359548
0.983932 0.0280156 0.403845
0.985382 0.0365759 0.443076
0.985931 0.0547036 0.483421
0.986389 0.0652781 0.526162
0.986893 0.070222 0.567132
0.987167 0.0748302 0.603143
0.987503 0.0789807 0.635081
0.987945 0.0830091 0.662577
0.988052 0.0913405 0.686061
0.98851 0.115373 0.710567
0.0111543 0.118853 0.0295567
0.0115206 0.118318 0.0289464
0.0136873 0.115053 0.0242924
0.016434 0.112123 0.0173953
0.0294194 0.112718 0.0162966
0.046128 0.112947 0.0180972
0.0719463 0.112337 0.0171817
0.102724 0.110506 0.0194247
0.141909 0.107576 0.0223697
0.192447 0.0903944 0.0365148
0.228 0.0774243 0.0384833
0.266911 0.0651865 0.034226
0.315068 0.0464942 0.0320745
0.37145 0.0194095 0.0326696
0.427909 0.00614939 0.0533455
0.474678 0 0.0702525
0.532479 0.0158846 0.113848
0.602014 0.0264591 0.15172
0.660609 0.0298619 0.17583
0.731197 0.0292515 0.212802
0.808988 0.0280308 0.255787
0.882261 0.0268406 0.301732
0.944533 0.0260777 0.35021
0.983627 0.0281987 0.396201
0.985229 0.0357671 0.436698
0.985901 0.0525521 0.477531
0.986343 0.0653544 0.52047
0.986831 0.0702983 0.562661
0.987137 0.0749065 0.600198
0.987472 0.0790875 0.632441
0.987945 0.0831464 0.660334
0.988067 0.0932326 0.684825
0.988495 0.116991 0.70985
0.00593576 0.155917 0.0337835
0.00624094 0.155489 0.0331426
0.00891127 0.15256 0.0278477
0.0115358 0.149569 0.0219425
0.0216068 0.149493 0.0113985
0.0346838 0.150958 0.012604
0.0646372 0.150164 0.0161288
0.0980545 0.149874 0.0145724
0.136034 0.145861 0.0181277
0.183993 0.143099 0.0184176
0.248585 0.120546 0.0394903
0.297948 0.0987106 0.0434424
0.333639 0.0876783 0.0379492
0.379522 0.0655528 0.0332952
0.429313 0.0368658 0.0311589
0.486061 0.00613413 0.0368353
0.540291 0 0.0706798
0.592691 0.0112612 0.11957
0.667643 0.0314488 0.166506
0.730297 0.0317998 0.195911
0.808698 0.0305943 0.239399
0.882597 0.0290684 0.287022
0.945296 0.0276646 0.336812
0.983185 0.028748 0.385122
0.984985 0.0348974 0.427634
0.985885 0.0500496 0.469978
0.986282 0.0654307 0.512932
0.986801 0.0704051 0.556741
0.987106 0.0750439 0.595224
0.987457 0.0792554 0.628626
0.987915 0.0833143 0.657526
0.98819 0.095613 0.683482
0.988449 0.119478 0.708736
0 0.198566 0.0408789
0 0.198398 0.0404364
0.00181582 0.195651 0.0341344
0.00448615 0.192889 0.0264286
0.00738537 0.193698 0.0163577
0.0230716 0.193011 0.00520333
0.0438544 0.194675 0.00822461
0.0924849 0.193164 0.0122377
0.127092 0.192874 0.0107271
0.174914 0.187472 0.0165103
0.231556 0.184939 0.0133059
0.310567 0.158328 0.0401465
0.36965 0.128374 0.0507973
0.408621 0.114839 0.0458686
0.449714 0.0940719 0.0393683
0.497093 0.0623941 0.0365148
0.547387 0.024155 0.0364996
0.601511 0 0.058793
0.656718 0.00494392 0.124376
0.730999 0.0309453 0.17763
0.814817 0.0322881 0.22948
0.882506 0.0323796 0.266285
0.945907 0.030396 0.318456
0.982498 0.029984 0.369635
0.984588 0.0342412 0.414801
0.98584 0.0468299 0.459571
0.986206 0.0657054 0.50338
0.986725 0.070573 0.54818
0.987076 0.0751965 0.588769
0.987411 0.0794385 0.623987
0.9879 0.0835431 0.65391
0.988235 0.0984817 0.681575
0.988525 0.122698 0.707256
0 0.246006 0.053254
0 0.246006 0.053254
0 0.243595 0.045243
0 0.241077 0.0357519
0 0.2421 0.0273136
0.00276188 0.241993 0.00975052
0.0255436 0.241642 0
0.0648508 0.242969 0.00367742
0.118914 0.242329 0.00868238
0.161089 0.241199 0.00749218
0.220432 0.235325 0.0161746
0.285908 0.23328 0.00900282
0.374838 0.205081 0.0431067
0.442969 0.169543 0.0617685
0.492088 0.149828 0.0613565
0.527138 0.1346 0.0540627
0.572274 0.105348 0.049897
0.620157 0.0567788 0.0465705
0.669276 0.000335698 0.0508888
0.715785 0 0.104173
0.805463 0.024506 0.188357
0.889311 0.0350042 0.251072
0.946181 0.0345617 0.291844
0.981613 0.0327459 0.346578
0.983917 0.0344701 0.396628
0.985626 0.0435645 0.445029
0.986145 0.0636301 0.491264
0.986633 0.0708934 0.537881
0.987045 0.0754101 0.580026
0.98735 0.0796979 0.617014
0.987854 0.0838483 0.648585
0.98822 0.102342 0.678309
0.988479 0.126711 0.705028
0 0.299184 0.0684672
0 0.299184 0.0684672
0 0.297612 0.0624094
0 0.295857 0.0531014
0 0.296483 0.0407263
0 0.297429 0.0307469
0 0.29688 0.00646983
0.0316777 0.297047 0
0.0911116 0.298405 0.000427253
0.148257 0.298207 0.00570687
0.202594 0.297047 0.00610361
0.27303 0.290852 0.0188754
0.346578 0.289982 0.00488289
0.43801 0.264118 0.0448005
0.515877 0.228794 0.0734112
0.575051 0.200107 0.0826581
0.618296 0.183078 0.0799573
0.657206 0.159075 0.073991
0.701457 0.111086 0.0635691
0.744213 0.0321202 0.0647593
0.776532 0 0.104509
0.878233 0.0143435 0.194247
0.952071 0.038407 0.268696
0.980087 0.0377661 0.311894
0.982788 0.0361944 0.369284
0.985077 0.041062 0.423514
0.986099 0.0578317 0.474357
0.986526 0.071458 0.523507
0.987015 0.0758068 0.569024
0.987289 0.0800488 0.60766
0.987793 0.0842451 0.641154
0.98822 0.107713 0.674128
0.98854 0.131838 0.702419
0 0.357671 0.0865339
0 0.357671 0.0865339
0 0.356649 0.082063
0 0.355428 0.0744335
0 0.355962 0.0630198
0 0.357351 0.0540017
0 0.357992 0.0377356
0.00209049 0.357305 0.00375372
0.0440681 0.358694 0
0.118563 0.359335 0
0.185702 0.358892 0.00621042
0.250523 0.358114 0.00813306
0.334371 0.353613 0.021622
0.410834 0.354864 0.00184634
0.501106 0.336217 0.047715
0.588327 0.304906 0.0897078
0.659266 0.268727 0.11165
0.715145 0.242298 0.110872
0.753292 0.217288 0.102144
0.794995 0.172824 0.0955825
0.831998 0.0934005 0.0911879
0.855833 0 0.114229
0.937621 0.000411994 0.189609
0.978378 0.0432288 0.276417
0.981048 0.0417334 0.325002
0.983963 0.0407263 0.391073
0.985885 0.0506294 0.449775
0.986358 0.0722057 0.502464
0.986893 0.076524 0.553552
0.987213 0.0806897 0.595758
0.98764 0.0887465 0.632074
0.988174 0.114076 0.668208
0.988464 0.138735 0.698466
0 0.418357 0.107256
0 0.418357 0.107256
0 0.417777 0.104067
0 0.416861 0.0980545
0 0.417624 0.0887465
0 0.418433 0.0791485
0 0.420554 0.0697795
0.000610361 0.421317 0.0470283
0.0170748 0.420829 0.0171206
0.0628977 0.422492 0.00314336
0.150713 0.422492 0.00798047
0.232792 0.421744 0.0115511
0.306935 0.423148 0.0160678
0.399268 0.419623 0.0269322
0.479484 0.424369 0
0.563378 0.413413 0.0503548
0.662058 0.384237 0.103853
0.739956 0.351385 0.130999
0.810117 0.311543 0.143526
0.862409 0.279408 0.135241
0.894179 0.238819 0.125429
0.920562 0.163989 0.11873
0.932418 0.0112459 0.119326
0.97615 0 0.161425
0.978714 0.0495308 0.273503
0.981811 0.0459754 0.335821
0.985077 0.0465553 0.411139
0.986282 0.0637369 0.473625
0.986709 0.0775006 0.530602
0.987076 0.081651 0.579171
0.987778 0.0990463 0.622705
0.988235 0.123003 0.66041
0.988418 0.147875 0.6925
0 0.483467 0.133486
0 0.483467 0.133486
0 0.483101 0.131502
0 0.482277 0.126299
0 0.483146 0.119112
0 0.483803 0.110353
0 0.484977 0.100343
0.00500496 0.487678 0.0883497
0.0182956 0.488807 0.0601358
0.0344396 0.48954 0.0277867
0.0908675 0.490043 0.0196078
0.195224 0.489647 0.0271305
0.292744 0.48806 0.0234684
0.371572 0.493538 0.0264744
0.46865 0.490196 0.0396277
0.549645 0.497749 0
0.631617 0.488853 0.051606
0.734218 0.464027 0.115373
0.819516 0.433478 0.148013
0.892164 0.391989 0.167041
0.946624 0.349248 0.166461
0.981399 0.302831 0.155901
0.988113 0.23917 0.14316
0.990768 0.0722972 0.125261
0.990677 0.00358587 0.145876
0.978225 0.0568704 0.259342
0.982391 0.0506294 0.342809
0.985794 0.0532845 0.428153
0.986587 0.0771954 0.495155
0.98735 0.0917983 0.557046
0.987869 0.112718 0.60882
0.988159 0.135927 0.651179
0.988403 0.160433 0.686305
0 0.552239 0.168658
0 0.552239 0.168658
0 0.55172 0.165606
0 0.551049 0.160372
0.000335698 0.551659 0.15375
0.00575265 0.552193 0.145953
0.0125429 0.552956 0.135744
0.0201724 0.555032 0.124681
0.0250095 0.557656 0.10692
0.0334783 0.559518 0.0719463
0.0670787 0.561074 0.037644
0.141299 0.559396 0.0288396
0.264469 0.558465 0.0386053
0.36492 0.557916 0.0276036
0.441749 0.566445 0.0470893
0.539757 0.5626 0.0621805
0.620066 0.571786 0
0.699702 0.563378 0.0576028
0.803525 0.542367 0.129107
0.883909 0.516152 0.160876
0.949554 0.480888 0.179248
0.998337 0.431861 0.188861
1 0.378424 0.181552
1 0.31606 0.164141
0.999969 0.179263 0.136431
0.99588 0.0278935 0.124331
0.982559 0.0528878 0.237247
0.983749 0.0708171 0.35259
0.986831 0.0828107 0.448142
0.987366 0.112367 0.523598
0.987823 0.130358 0.586969
0.98819 0.152895 0.637385
0.988312 0.177722 0.677684
0.0138094 0.623499 0.211597
0.0138094 0.623499 0.211597
0.0162661 0.622644 0.207263
0.018677 0.621851 0.202335
0.0205692 0.622431 0.196689
0.0226902 0.622965 0.189975
0.0254978 0.623514 0.180285
0.0296483 0.624659 0.167239
0.0346532 0.627512 0.154833
0.0434577 0.629496 0.127398
0.0569314 0.631693 0.0827649
0.109895 0.63331 0.0509194
0.21735 0.630732 0.0466011
0.349081 0.628687 0.0529641
0.435325 0.632929 0.0425269
0.517205 0.640375 0.0737011
0.610712 0.635645 0.0919356
0.689235 0.643503 0.0101472
0.767452 0.637217 0.0667277
0.858198 0.621088 0.139574
0.928618 0.59881 0.167849
0.980072 0.570321 0.181415
0.996429 0.53138 0.183963
1 0.474723 0.189425
1 0.392889 0.186038
1 0.278584 0.15465
0.997803 0.115526 0.129976
0.990311 0.0617075 0.199863
0.985779 0.085359 0.38999
0.987213 0.131685 0.468437
0.987579 0.154955 0.551202
0.987915 0.175555 0.614847
0.987991 0.199298 0.664012
0.0271153 0.695399 0.257923
0.0272679 0.695262 0.257267
0.028687 0.694209 0.252323
0.0301061 0.693324 0.248005
0.0323644 0.693721 0.242863
0.034699 0.694163 0.237186
0.0379644 0.694667 0.229175
0.0432746 0.695308 0.216327
0.0497444 0.696864 0.20145
0.0577249 0.699825 0.185183
0.0704967 0.701915 0.147494
0.0859693 0.704082 0.0871443
0.171176 0.704173 0.0675822
0.311513 0.701198 0.0737621
0.440421 0.699626 0.0679637
0.507134 0.708736 0.0680095
0.59115 0.714229 0.104448
0.680018 0.707881 0.127596
0.756405 0.713512 0.0531014
0.828717 0.709377 0.0814832
0.901183 0.695415 0.144549
0.952117 0.6804 0.166339
0.976532 0.657694 0.166262
0.982467 0.6224 0.165087
0.990616 0.571725 0.177264
1 0.493584 0.188037
1 0.37261 0.179904
1 0.203006 0.139956
0.999252 0.152575 0.147555
0.986191 0.141131 0.387671
0.98735 0.186587 0.485405
0.987488 0.205753 0.576211
0.987762 0.226947 0.641138
0.0421912 0.767712 0.305669
0.0429389 0.767193 0.303578
0.0447089 0.766217 0.299184
0.0464332 0.765347 0.295262
0.0488746 0.765454 0.290562
0.0514992 0.765652 0.285634
0.0551461 0.766033 0.278477
0.0604562 0.766506 0.267536
0.0676432 0.767239 0.252003
0.0760357 0.769284 0.235004
0.0860456 0.772091 0.21207
0.100969 0.774182 0.161547
0.143847 0.776059 0.105776
0.265232 0.771649 0.0902113
0.415396 0.771756 0.103105
0.518761 0.773312 0.0891585
0.578256 0.784268 0.104631
0.662654 0.787793 0.141238
0.745815 0.778576 0.169146
0.818952 0.781643 0.116594
0.879667 0.779126 0.108019
0.934401 0.765103 0.1514
0.965484 0.754192 0.158053
0.96553 0.735851 0.135866
0.967315 0.706737 0.132845
0.976089 0.659831 0.152956
0.987655 0.590967 0.173175
1 0.479683 0.189044
1 0.286015 0.156313
1 0.278737 0.154681
0.985519 0.213413 0.365606
0.987289 0.245838 0.501137
0.987549 0.263996 0.599878
0.0610971 0.837278 0.350042
0.0624704 0.836439 0.346975
0.0642252 0.835416 0.343023
0.0659037 0.834394 0.339574
0.0682841 0.834546 0.335744
0.0707256 0.834623 0.331701
0.0743725 0.834852 0.32607
0.0795605 0.835142 0.317205
0.0867475 0.835569 0.303639
0.0953384 0.836332 0.285023
0.104631 0.838026 0.264759
0.117082 0.840558 0.231235
0.135042 0.842374 0.163256
0.222629 0.841611 0.123781
0.381598 0.837156 0.129152
0.513146 0.836164 0.12987
0.588785 0.841886 0.12491
0.645563 0.851072 0.14963
0.730083 0.852613 0.182116
0.808362 0.842466 0.210071
0.87042 0.843549 0.180652
0.921111 0.844404 0.142367
0.960693 0.832883 0.168475
0.970245 0.821851 0.147723
0.968185 0.805158 0.0912947
0.967086 0.776318 0.0785534
0.965896 0.737896 0.112673
0.972473 0.679377 0.145174
0.989288 0.57969 0.175616
1 0.36585 0.177874
1 0.36054 0.176425
0.994293 0.272007 0.329351
0.987213 0.278828 0.561624
0.0814069 0.895109 0.389441
0.083299 0.894194 0.385443
0.0849775 0.893202 0.382284
0.0865492 0.892409 0.378912
0.0890974 0.892409 0.375631
0.0916457 0.892439 0.372335
0.0951095 0.892546 0.367773
0.0998703 0.892744 0.3608
0.106249 0.892973 0.350164
0.114641 0.893065 0.33344
0.125032 0.893797 0.311604
0.13611 0.89575 0.287892
0.1523 0.897734 0.240253
0.191806 0.898543 0.165011
0.340902 0.892561 0.152544
0.486809 0.890761 0.167102
0.595468 0.890013 0.160891
0.651408 0.898314 0.171099
0.707546 0.905943 0.198718
0.795254 0.906767 0.224475
0.86247 0.896468 0.252384
0.913603 0.8963 0.239948
0.951797 0.896666 0.2168
0.980026 0.890913 0.19646
0.977966 0.881193 0.155657
0.974975 0.86804 0.0575265
0.971633 0.843656 0.0188907
0.968765 0.806912 0.049546
0.966339 0.752911 0.100969
0.975082 0.665385 0.150896
1 0.45771 0.190356
1 0.451606 0.190738
1 0.353735 0.329976
0.102007 0.940337 0.424582
0.104173 0.939574 0.420661
0.105974 0.938918 0.417044
0.107927 0.938201 0.413977
0.110567 0.93817 0.410803
0.112886 0.938201 0.408057
0.11603 0.93817 0.404166
0.120333 0.938216 0.398489
0.126589 0.938277 0.389838
0.134554 0.938491 0.376837
0.145373 0.938781 0.357046
0.158145 0.939162 0.330587
0.171054 0.940581 0.301579
0.190509 0.941924 0.234638
0.285176 0.939406 0.183062
0.457755 0.933623 0.199023
0.578515 0.930312 0.203159
0.657084 0.932799 0.201099
0.70811 0.940993 0.220615
0.769116 0.94847 0.248478
0.853178 0.948608 0.269795
0.907744 0.939193 0.294759
0.947005 0.938445 0.293996
0.974884 0.937789 0.279088
0.985458 0.933135 0.259464
0.983795 0.927001 0.214771
0.981613 0.919661 0.114031
0.979156 0.900542 0.0145571
0.974899 0.869947 0.0034638
0.969711 0.821073 0.035462
0.966079 0.7402 0.111177
0.992142 0.561257 0.179278
0.993515 0.55082 0.180972
0.123384 0.972824 0.455512
0.125566 0.972229 0.452033
0.127565 0.971679 0.448692
0.12961 0.971176 0.44506
0.132097 0.971069 0.442329
0.134401 0.971054 0.439582
0.137407 0.971023 0.436164
0.141604 0.970947 0.431464
0.147112 0.970916 0.424491
0.154681 0.970962 0.414008
0.164675 0.971038 0.398245
0.177569 0.971222 0.37406
0.192386 0.971588 0.34197
0.206714 0.972473 0.304387
0.24007 0.972915 0.222858
0.413474 0.96698 0.228534
0.553536 0.960998 0.240894
0.651133 0.958541 0.2392
0.709667 0.965194 0.251392
0.761624 0.972641 0.274006
0.83035 0.977905 0.29453
0.90071 0.978103 0.313481
0.942946 0.969467 0.334569
0.971923 0.968414 0.337392
0.989776 0.967544 0.331273
0.990723 0.963531 0.315022
0.989242 0.959945 0.27834
0.986984 0.956542 0.202274
0.9841 0.940185 0.143664
0.981079 0.91899 0.06804
0.97644 0.880674 0
0.968765 0.806134 0.0469368
0.978622 0.646204 0.157839
0.141772 0.984222 0.480079
0.14313 0.984527 0.476814
0.144671 0.984771 0.47361
0.146883 0.984802 0.470375
0.149432 0.984833 0.467674
0.151781 0.984863 0.465293
0.154772 0.984878 0.462043
0.158602 0.984909 0.457984
0.163668 0.98497 0.452171
0.170474 0.985016 0.443824
0.1794 0.985077 0.431327
0.19115 0.985077 0.411749
0.205692 0.984955 0.38146
0.221775 0.984955 0.340749
0.237278 0.984863 0.290105
0.345403 0.9841 0.252583
0.514412 0.975448 0.271031
0.630243 0.969299 0.273793
0.697963 0.971984 0.277577
0.753765 0.978973 0.296437
0.812787 0.984512 0.315129
0.876448 0.986923 0.326268
0.934051 0.987762 0.347967
0.967926 0.983444 0.365545
0.988037 0.985199 0.373098
0.995621 0.984649 0.371756
0.994705 0.982757 0.359533
0.993408 0.981598 0.329458
0.991638 0.981033 0.274479
0.98909 0.969863 0.232853
0.986267 0.953399 0.180163
0.98175 0.924987 0.0881361
0.974075 0.864134 0.000885023
0.159976 0.984039 0.500587
0.160967 0.984283 0.497459
0.161868 0.984543 0.49424
0.162951 0.984771 0.491096
0.164721 0.98497 0.488258
0.166384 0.985153 0.485451
0.169024 0.985107 0.482612
0.17293 0.985122 0.478508
0.177569 0.985183 0.473548
0.183841 0.985245 0.466697
0.192233 0.98526 0.456748
0.202579 0.985351 0.441444
0.215869 0.985382 0.417105
0.231998 0.985382 0.379355
0.249729 0.985306 0.327565
0.288884 0.985428 0.279927
0.45864 0.980331 0.298405
0.591577 0.973159 0.306004
0.680964 0.971801 0.304906
0.736553 0.977844 0.316472
0.796674 0.984344 0.333562
0.857603 0.987106 0.342519
0.910613 0.98883 0.352285
0.950561 0.982254 0.374853
0.981231 0.984573 0.382422
0.994461 0.98587 0.39205
0.996185 0.986099 0.390295
0.996063 0.98616 0.381292
0.995087 0.985809 0.35285
0.99353 0.985183 0.308858
0.99292 0.984894 0.291569
0.990478 0.97734 0.257572
0.986694 0.956451 0.190066
0.184604 0.983963 0.521248
0.185245 0.984161 0.518517
0.18587 0.984344 0.515679
0.186358 0.984588 0.512566
0.18793 0.984817 0.510079
0.189487 0.985 0.507805
0.191348 0.98526 0.504677
0.193805 0.985626 0.500496
0.19823 0.985626 0.495796
0.203494 0.985656 0.489769
0.210224 0.98555 0.481529
0.219394 0.985611 0.469398
0.230991 0.985641 0.450782
0.245411 0.985672 0.421469
0.263264 0.985611 0.374197
0.306859 0.985809 0.329229
0.397009 0.985153 0.328603
0.545007 0.977661 0.340383
0.655497 0.97351 0.341894
0.722164 0.977707 0.346273
0.779171 0.983597 0.35848
0.844846 0.986984 0.369253
0.893797 0.988418 0.372122
0.935546 0.988067 0.380606
0.968612 0.983444 0.396033
0.990097 0.985245 0.406149
0.996689 0.985977 0.414298
0.996597 0.985992 0.410544
0.996277 0.986038 0.396887
0.995621 0.986068 0.365972
0.994308 0.985534 0.329747
0.993805 0.985306 0.316609
0.993255 0.985046 0.301137
0.211017 0.983932 0.541787
0.211154 0.9841 0.538949
0.211292 0.984268 0.535973
0.211505 0.984451 0.53312
0.21268 0.984634 0.531289
0.213962 0.984833 0.529122
0.215595 0.985061 0.52636
0.217823 0.985367 0.522774
0.220447 0.985809 0.517769
0.225101 0.985901 0.512016
0.231022 0.985946 0.504814
0.238758 0.985992 0.495216
0.248646 0.985855 0.480873
0.261433 0.985885 0.458595
0.285283 0.986038 0.427955
0.329137 0.986267 0.390692
0.413504 0.986679 0.388876
0.509743 0.983627 0.406287
0.619898 0.979492 0.40943
0.708858 0.979812 0.406882
0.768887 0.983688 0.413382
0.828122 0.986267 0.419638
0.882765 0.988006 0.41268
0.923018 0.989105 0.403128
0.950607 0.982452 0.415183
0.981292 0.984436 0.421332
0.996124 0.985595 0.4542
0.998291 0.985641 0.479271
0.997803 0.985702 0.462043
