reference/Neutral A7s3.cube
TITLE "Generated by Resolve"
LUT_3D_SIZE 5
0.0137789 0.013077 0.013138
0.143053 0.0152285 0.0384222
0.540887 0.0183261 0.159319
0.985611 0.0459144 0.470695
0.988449 0.173342 0.765454
0.00593576 0.155917 0.0337835
0.136034 0.145861 0.0181277
0.540291 0 0.0706798
0.984985 0.0348974 0.427634
0.988449 0.119478 0.708736
0.0138094 0.623499 0.211597
0.0346532 0.627512 0.154833
0.610712 0.635645 0.0919356
1 0.392889 0.186038
0.987991 0.199298 0.664012
0.159976 0.984039 0.500587
0.177569 0.985183 0.473548
0.45864 0.980331 0.298405
0.981231 0.984573 0.382422
0.986694 0.956451 0.190066
0.59173 0.987411 0.756344
0.561013 0.987594 0.729091
0.668238 0.989578 0.757488
0.93196 0.991989 0.810056
0.998489 0.989899 0.835004
0.0176699 0.0133364 0.117082
0.142977 0.0123598 0.124605
0.546944 0.00776684 0.231052
0.986007 0.0570993 0.511711
0.988037 0.189044 0.784863
0.00984207 0.141085 0.12903
0.134997 0.133654 0.134783
0.545083 0.0188449 0.161135
0.98584 0.0505989 0.478279
0.987533 0.237491 0.812268
0 0.617121 0.267384
0.0238041 0.615564 0.212833
0.595544 0.619898 0.10135
1 0.356207 0.175235
0.987945 0.286183 0.786206
0.166934 0.982788 0.527672
0.175097 0.984527 0.502983
0.375189 0.985443 0.310536
0.980972 0.984543 0.382483
0.983963 0.938918 0.135973
0.606149 0.987213 0.770855
0.604883 0.987503 0.764874
0.683711 0.989975 0.779187
0.929381 0.99205 0.812802
0.998474 0.989914 0.835126
0.0455634 0.0155489 0.465858
0.183108 0 0.493721
0.560403 0.0121309 0.516396
0.987045 0.0530709 0.710262
0.986664 0.213733 0.841489
0 0.06804 0.479942
0.0637827 0.0148165 0.52784
0.581689 0.0163882 0.535317
0.98706 0.0540627 0.694255
0.986023 0.264286 0.861585
0.0230106 0.575814 0.546227
0.0351415 0.572137 0.543877
0.565759 0.565423 0.56672
0.98735 0.145006 0.509941
0.984634 0.457099 0.908583
0.177615 0.981216 0.667781
0.19266 0.981338 0.651453
0.359808 0.986664 0.555398
0.973724 0.981491 0.59028
0.980728 0.916045 0.0554513
0.601297 0.986023 0.798566
0.605127 0.98616 0.796582
0.697429 0.989166 0.820493
0.923476 0.992325 0.841535
0.998398 0.989975 0.836698
0.0294194 0.0669718 0.904723
0.177142 0.0207828 0.915633
0.621927 0 0.924529
0.98233 0.050721 0.965301
0.983734 0.0925612 0.97409
0 0.120607 0.893034
0.013611 0.0855268 0.933272
0.612711 0 0.950607
0.982452 0.0518959 0.971862
0.984146 0.136751 0.977127
0 0.548638 0.866468
0 0.541482 0.883238
0.463478 0.480797 0.96257
0.983368 0.0799573 0.971405
0.983566 0.455604 0.983566
0.173266 0.946365 0.924941
0.184344 0.945922 0.924559
0.300603 0.941115 0.920546
0.934798 0.934722 0.935332
0.984375 0.719112 0.916167
0.554589 0.985367 0.920943
0.576776 0.985702 0.921172
0.701503 0.988373 0.930007
0.918227 0.993698 0.944625
0.994079 0.993088 0.95227
0 0.226703 0.946227
0 0.181659 0.964462
0.503594 0.0233921 0.976196
0.981704 0.0395056 0.981704
0.983169 0.0712902 0.983185
0 0.24625 0.940475
0 0.36466 0.956939
0.442771 0.223224 0.978515
0.98291 0.0609903 0.98291
0.983383 0.0747997 0.983383
0 0.610376 0.938308
0 0.638605 0.94786
0.215183 0.675425 0.96698
0.981964 0.554238 0.981964
0.983612 0.0876936 0.983612
0.0540017 0.938476 0.97612
0.0698863 0.93933 0.977111
0.255253 0.929885 0.978988
0.912795 0.929381 0.989868
0.983368 0.755093 0.983368
0.511498 0.983413 0.983948
0.541695 0.983734 0.98436
0.683482 0.986572 0.98735
0.914717 0.993347 0.993545
0.993469 0.993469 0.993469
