reference/Neutral A7s3.cube
TITLE "Generated by Resolve"
LUT_3D_SIZE 9
0.0137789 0.013077 0.013138
0.0332189 0.0137484 0.016556
0.143053 0.0152285 0.0384222
0.318029 0.0150149 0.0729534
0.540887 0.0183261 0.159319
0.821775 0.0227817 0.298451
0.985611 0.0459144 0.470695
0.987503 0.0782025 0.637613
0.988449 0.173342 0.765454
0.0141909 0.0345464 0.0200809
0.0318151 0.03299 0.0156405
0.127779 0.0224765 0.0276188
0.31104 0.0145571 0.0657664
0.533242 0.0198825 0.147189
0.807904 0.0240177 0.281926
0.98555 0.0383612 0.451835
0.987198 0.0746929 0.607736
0.98851 0.112947 0.711666
0.00593576 0.155917 0.0337835
0.0216068 0.149493 0.0113985
0.136034 0.145861 0.0181277
0.333639 0.0876783 0.0379492
0.540291 0 0.0706798
0.808698 0.0305943 0.239399
0.984985 0.0348974 0.427634
0.987106 0.0750439 0.595224
0.988449 0.119478 0.708736
0 0.357671 0.0865339
0 0.355962 0.0630198
0.0440681 0.358694 0
0.334371 0.353613 0.021622
0.659266 0.268727 0.11165
0.831998 0.0934005 0.0911879
0.981048 0.0417334 0.325002
0.986893 0.076524 0.553552
0.988464 0.138735 0.698466
0.0138094 0.623499 0.211597
0.0205692 0.622431 0.196689
0.0346532 0.627512 0.154833
0.21735 0.630732 0.0466011
0.610712 0.635645 0.0919356
0.928618 0.59881 0.167849
1 0.392889 0.186038
0.985779 0.085359 0.38999
0.987991 0.199298 0.664012
0.0814069 0.895109 0.389441
0.0890974 0.892409 0.375631
0.106249 0.892973 0.350164
0.1523 0.897734 0.240253
0.595468 0.890013 0.160891
0.86247 0.896468 0.252384
0.977966 0.881193 0.155657
0.966339 0.752911 0.100969
1 0.353735 0.329976
0.159976 0.984039 0.500587
0.164721 0.98497 0.488258
0.177569 0.985183 0.473548
0.215869 0.985382 0.417105
0.45864 0.980331 0.298405
0.796674 0.984344 0.333562
0.981231 0.984573 0.382422
0.995087 0.985809 0.35285
0.986694 0.956451 0.190066
0.269459 0.984054 0.581353
0.265965 0.984421 0.571618
0.271702 0.985306 0.561395
0.304006 0.986389 0.538537
0.48539 0.987213 0.534234
0.760021 0.98526 0.566018
0.944213 0.990051 0.568368
1 0.98468 0.608469
0.996262 0.986053 0.395377
0.59173 0.987411 0.756344
0.555154 0.987274 0.729397
0.561013 0.987594 0.729091
0.592462 0.988617 0.736126
0.668238 0.989578 0.757488
0.797421 0.991577 0.791943
0.93196 0.991989 0.810056
0.992721 0.989227 0.807095
0.998489 0.989899 0.835004
0.0139467 0.0131533 0.0299992
0.0332494 0.0137331 0.0305791
0.141588 0.0129549 0.0633097
0.313603 0.0117494 0.102754
0.540413 0.0145724 0.18114
0.827787 0.020676 0.325139
0.985763 0.0532998 0.487831
0.987625 0.0791638 0.649775
0.988128 0.187823 0.779553
0.014023 0.0323949 0.0307622
0.0311894 0.0305486 0.0306859
0.149523 0.0228275 0.0426032
0.318517 0.0150454 0.0730602
0.540795 0.0184176 0.159274
0.818006 0.0228428 0.29604
0.98558 0.044007 0.466667
0.987411 0.0771344 0.629572
0.988678 0.153841 0.749477
0.00700389 0.154421 0.0686351
0.00923171 0.153231 0.0347143
0.134279 0.143954 0.019913
0.340734 0.0784619 0.0436408
0.547509 0.00598154 0.10251
0.819623 0.0288548 0.255512
0.985473 0.0385748 0.443717
0.98735 0.0775311 0.619257
0.988647 0.161944 0.748974
0 0.355962 0.109987
0 0.356558 0.0874647
0.0171511 0.357366 0.00337224
0.332143 0.351125 0.0228428
0.659419 0.26096 0.116197
0.834516 0.0605478 0.0886549
0.982223 0.0394598 0.35259
0.987243 0.079118 0.584176
0.988602 0.184924 0.746685
0.00859083 0.621225 0.229068
0.0163424 0.622415 0.211612
0.0311894 0.624811 0.168444
0.186358 0.629877 0.0467384
0.608286 0.633143 0.0934462
0.932097 0.592706 0.17499
1 0.374151 0.180362
0.986847 0.118959 0.432441
0.988098 0.244129 0.732769
0.0775921 0.892805 0.403372
0.0827649 0.893996 0.389395
0.099321 0.893858 0.366949
0.145663 0.897475 0.269673
0.586252 0.889509 0.166232
0.862318 0.8963 0.252354
0.977386 0.877913 0.156985
0.965698 0.72697 0.120684
0.987396 0.359121 0.622812
0.163348 0.983459 0.51194
0.162005 0.984161 0.500862
0.17348 0.985183 0.484565
0.211231 0.985443 0.434791
0.42533 0.982238 0.299641
0.791897 0.983963 0.334676
0.981201 0.984573 0.382452
0.994949 0.985763 0.34934
0.984298 0.941863 0.145739
0.273213 0.983825 0.588907
0.269993 0.984085 0.581582
0.274647 0.984802 0.571878
0.305196 0.986389 0.548089
0.480125 0.987198 0.543557
0.753048 0.985214 0.572335
0.942962 0.990005 0.571954
1 0.98468 0.608331
0.996262 0.986053 0.39527
0.606241 0.987396 0.767849
0.594308 0.987472 0.758144
0.59855 0.987732 0.757488
0.618387 0.988571 0.759548
0.682582 0.989944 0.774945
0.798016 0.991684 0.799069
0.93051 0.991989 0.810391
0.992477 0.989242 0.807828
0.998489 0.989914 0.835019
0.0176699 0.0133364 0.117082
0.0564889 0.0119326 0.117601
0.142977 0.0123598 0.124605
0.320058 0.00741588 0.170062
0.546944 0.00776684 0.231052
0.837369 0.0209201 0.365576
0.986007 0.0570993 0.511711
0.987732 0.0795148 0.660548
0.988037 0.189044 0.784863
0.0114137 0.0305791 0.0957046
0.0212253 0.0144198 0.123064
0.145403 0.0131228 0.126452
0.319265 0.00805676 0.143297
0.541482 0.00950637 0.208194
0.825467 0.0201724 0.337346
0.985656 0.0533608 0.490043
0.987518 0.0774548 0.642023
0.988449 0.154955 0.755566
0.00984207 0.141085 0.12903
0.0130465 0.14023 0.128511
0.134997 0.133654 0.134783
0.367849 0.0809186 0.137942
0.545083 0.0188449 0.161135
0.830427 0.023209 0.302602
0.98584 0.0505989 0.478279
0.987732 0.0815595 0.656626
0.987533 0.237491 0.812268
0 0.351614 0.169284
0 0.351843 0.148775
0.0132601 0.348775 0.0970016
0.327703 0.345052 0.0648051
0.61944 0.254154 0.136065
0.871183 0.0366369 0.168261
0.984298 0.0379797 0.398459
0.987472 0.0820935 0.622782
0.987594 0.251133 0.807874
0 0.617121 0.267384
0.00535592 0.616724 0.248234
0.0238041 0.615564 0.212833
0.117144 0.619654 0.0621195
0.595544 0.619898 0.10135
0.925795 0.577737 0.199359
1 0.356207 0.175235
0.987366 0.128908 0.491447
0.987945 0.286183 0.786206
0.0745251 0.887022 0.423423
0.0768139 0.88835 0.41033
0.0910506 0.888609 0.389532
0.139406 0.888701 0.297856
0.558602 0.885451 0.188159
0.856489 0.890623 0.256489
0.976898 0.870115 0.198947
0.96556 0.715496 0.128328
0.987167 0.404486 0.644236
0.166934 0.982788 0.527672
0.165881 0.983215 0.517952
0.175097 0.984527 0.502983
0.210483 0.98558 0.457633
0.375189 0.985443 0.310536
0.785687 0.983703 0.34435
0.980972 0.984543 0.382483
0.995331 0.985931 0.358846
0.983963 0.938918 0.135973
0.274678 0.983459 0.598032
0.271626 0.983703 0.590738
0.276356 0.984268 0.582666
0.305104 0.986404 0.558709
0.477012 0.987198 0.554528
0.748058 0.985229 0.581689
0.941909 0.989975 0.581231
1 0.984695 0.606409
0.996307 0.986038 0.398032
0.606149 0.987213 0.770855
0.593988 0.987305 0.760662
0.604883 0.987503 0.764874
0.622431 0.988434 0.765545
0.683711 0.989975 0.779187
0.796902 0.991684 0.801389
0.929381 0.99205 0.812802
0.991974 0.989364 0.81088
0.998474 0.989914 0.835126
0.0267643 0.0132906 0.267643
0.0657206 0.00730907 0.27187
0.165087 0.00419623 0.282445
0.327123 0.00639353 0.291829
0.555261 0.00822461 0.3561
0.841566 0.0303807 0.463111
0.98645 0.057847 0.574884
0.988006 0.0805982 0.691707
0.987839 0.193881 0.800839
0.00714122 0.0209812 0.26157
0.0283818 0.0129854 0.278721
0.147509 0.00454719 0.295399
0.327718 0.00643931 0.29247
0.551583 0.00782788 0.346151
0.833844 0.0300145 0.439887
0.986252 0.057023 0.557595
0.987823 0.078584 0.675517
0.988296 0.160342 0.774426
0 0.122972 0.270146
0 0.115999 0.284337
0.0972915 0.079469 0.329702
0.355322 0.0284428 0.318105
0.554391 0.00901808 0.331701
0.838956 0.0299687 0.41503
0.986267 0.0590829 0.54902
0.9879 0.0824292 0.687877
0.986984 0.243366 0.826001
0 0.327489 0.302129
0 0.327245 0.302296
0.0167544 0.323308 0.300511
0.333959 0.332631 0.334234
0.627741 0.242725 0.318074
0.864866 0.0277104 0.315526
0.985977 0.0572061 0.487953
0.988022 0.092195 0.681117
0.986236 0.345892 0.867658
0.00450141 0.606424 0.380118
0.00805676 0.606134 0.369024
0.027863 0.603372 0.342657
0.0882582 0.599374 0.240604
0.582864 0.601572 0.251286
0.88922 0.551385 0.284291
1 0.251957 0.209949
0.987778 0.13106 0.580591
0.98706 0.363516 0.848692
0.0763714 0.876188 0.491371
0.0778973 0.876158 0.478431
0.091371 0.875456 0.457389
0.130251 0.875059 0.39675
0.46891 0.880446 0.250935
0.83975 0.87306 0.280415
0.975738 0.847547 0.288945
0.971267 0.686229 0.142458
0.987305 0.419715 0.742046
0.174289 0.981582 0.567864
0.174472 0.981826 0.559121
0.185458 0.982651 0.548989
0.211109 0.985733 0.509316
0.348013 0.986419 0.376669
0.769589 0.983291 0.392309
0.978851 0.984283 0.398993
0.99617 0.986114 0.3888
0.982589 0.929976 0.105409
0.277958 0.982712 0.621927
0.275593 0.982818 0.616236
0.280964 0.983185 0.609537
0.308476 0.985092 0.590143
0.471672 0.987228 0.584558
0.733547 0.985733 0.610742
0.939086 0.989853 0.610315
1 0.984695 0.603067
0.996719 0.985977 0.415152
0.60589 0.986801 0.779019
0.593256 0.986786 0.769238
0.604776 0.986999 0.77377
0.63415 0.987884 0.783536
0.687633 0.990112 0.791455
0.79411 0.991714 0.808835
0.926635 0.992218 0.819974
0.99057 0.989746 0.819684
0.998459 0.989929 0.835447
0.0455634 0.0155489 0.465858
0.0906233 0.00486763 0.473655
0.183108 0 0.493721
0.352621 0 0.492592
0.560403 0.0121309 0.516396
0.850828 0.0293736 0.602197
0.987045 0.0530709 0.710262
0.987396 0.0814832 0.765805
0.986664 0.213733 0.841489
0.0290227 0.0196689 0.469734
0.0497902 0.0147555 0.476387
0.156405 0 0.500206
0.343679 0 0.49575
0.55938 0.0120851 0.515389
0.843183 0.0288396 0.59266
0.987182 0.0523842 0.6981
0.987564 0.0793774 0.754574
0.986984 0.181842 0.822202
0 0.06804 0.479942
0 0.0631876 0.494316
0.0637827 0.0148165 0.52784
0.344335 0 0.547524
0.581689 0.0163882 0.535317
0.849699 0.0290684 0.590265
0.98706 0.0540627 0.694255
0.987594 0.084596 0.762219
0.986023 0.264286 0.861585
0 0.293416 0.492866
0 0.288243 0.501656
0 0.273198 0.520333
0.26424 0.236622 0.574853
0.622736 0.137835 0.574212
0.875227 0.035172 0.591669
0.987015 0.0550393 0.664515
0.988006 0.104906 0.759045
0.985519 0.366369 0.892195
0.0230106 0.575814 0.546227
0.0264591 0.575158 0.545922
0.0351415 0.572137 0.543877
0.0768139 0.560113 0.533989
0.565759 0.565423 0.56672
0.888365 0.498161 0.563851
0.98735 0.145006 0.509941
0.98851 0.140887 0.706981
0.984634 0.457099 0.908583
0.0773632 0.854124 0.621241
0.0794232 0.854231 0.61445
0.0932174 0.853498 0.60441
0.137972 0.849531 0.570138
0.425254 0.855192 0.52845
0.815244 0.83827 0.542412
0.979553 0.807568 0.53547
0.9953 0.572168 0.373388
0.986755 0.453193 0.837263
0.177615 0.981216 0.667781
0.179156 0.981186 0.660914
0.19266 0.981338 0.651453
0.229252 0.981735 0.620264
0.359808 0.986664 0.555398
0.756436 0.985306 0.581811
0.973724 0.981491 0.59028
0.999405 0.974456 0.552087
0.980728 0.916045 0.0554513
0.280476 0.981994 0.678614
0.279423 0.981964 0.673487
0.286183 0.982055 0.667521
0.320439 0.982574 0.655573
0.479362 0.987411 0.655207
0.724636 0.988113 0.676783
0.933852 0.990082 0.687999
1 0.984451 0.659052
1 0.984695 0.599039
0.601297 0.986023 0.798566
0.591714 0.985977 0.791989
0.605127 0.98616 0.796582
0.63714 0.986984 0.807019
0.697429 0.989166 0.820493
0.792157 0.991714 0.829404
0.923476 0.992325 0.841535
0.988159 0.990631 0.84358
0.998398 0.989975 0.836698
0.0785382 0.0261234 0.698726
0.132692 0.0114595 0.709697
0.213367 0 0.721294
0.386648 0 0.722072
0.581811 0 0.711955
0.838239 0.0319524 0.764096
0.98378 0.0520485 0.853056
0.983642 0.0772564 0.902892
0.984833 0.162966 0.907027
0.057847 0.0310521 0.699489
0.0806439 0.0256199 0.700938
0.172015 9.15541e-05 0.719799
0.369146 0 0.730037
0.57377 0 0.709529
0.832959 0.0316472 0.759197
0.983978 0.0512398 0.846387
0.983764 0.0755779 0.898299
0.984695 0.119341 0.895247
0 0.0870527 0.719707
0 0.0809033 0.729656
0.085893 0.0312047 0.760754
0.343633 0 0.777996
0.612894 0 0.771634
0.845457 0.0325322 0.770886
0.983688 0.0527504 0.854246
0.98381 0.0805066 0.901595
0.984436 0.254292 0.922393
0 0.250614 0.704463
0 0.241352 0.712398
0 0.223148 0.741756
0.17467 0.13611 0.811185
0.584909 0.0309911 0.807431
0.899336 0.0428321 0.81886
0.983703 0.0532692 0.854917
0.9841 0.0847486 0.896849
0.984298 0.39443 0.937896
0 0.559182 0.722515
0 0.556603 0.726284
0 0.551659 0.736736
0 0.52903 0.758907
0.516793 0.506035 0.816831
0.880919 0.42034 0.820066
0.985183 0.072282 0.832486
0.984588 0.0861372 0.873213
0.9832 0.503273 0.943633
0.0844434 0.814588 0.781247
0.086305 0.814099 0.78088
0.0971389 0.812482 0.779675
0.131304 0.807279 0.775753
0.396841 0.805493 0.779904
0.786145 0.785992 0.787106
0.983825 0.737667 0.789761
0.987076 0.433631 0.746868
0.984436 0.484291 0.908125
0.173327 0.968505 0.817456
0.175021 0.968688 0.814115
0.186511 0.968627 0.809186
0.218341 0.967529 0.79292
0.343313 0.969238 0.753597
0.724681 0.968719 0.779553
0.951888 0.960769 0.792157
0.999924 0.947478 0.778119
0.984131 0.831495 0.615686
0.273701 0.982177 0.802182
0.273564 0.982177 0.798535
0.28098 0.982223 0.793576
0.309117 0.982467 0.779019
0.496544 0.984329 0.779049
0.721828 0.990692 0.803967
0.925917 0.992157 0.818067
0.997604 0.989548 0.823972
1 0.988571 0.799542
0.589258 0.985779 0.844511
0.584665 0.985702 0.841337
0.602213 0.986068 0.844846
0.640726 0.986862 0.853071
0.70692 0.988388 0.866224
0.800015 0.991638 0.875608
0.924056 0.992645 0.885039
0.984466 0.992035 0.891737
0.996246 0.991501 0.874083
0.0294194 0.0669718 0.904723
0.0906081 0.0482338 0.907317
0.177142 0.0207828 0.915633
0.376715 0 0.925353
0.621927 0 0.924529
0.822797 0.0115358 0.901656
0.98233 0.050721 0.965301
0.983291 0.0723735 0.980835
0.983734 0.0925612 0.97409
0.0165866 0.074464 0.897383
0.0376135 0.0615091 0.899763
0.137316 0.0353552 0.909804
0.350225 0 0.921309
0.613672 0 0.925063
0.81854 0.0112459 0.899504
0.982284 0.0502022 0.961669
0.983093 0.0709544 0.978744
0.983551 0.0892958 0.973404
0 0.120607 0.893034
0 0.115892 0.900008
0.013611 0.0855268 0.933272
0.291676 0 0.941009
0.612711 0 0.950607
0.840696 0.0146639 0.922316
0.982452 0.0518959 0.971862
0.983398 0.0755322 0.98233
0.984146 0.136751 0.977127
0 0.24419 0.85977
0 0.235706 0.866651
0 0.224613 0.893904
0.0512245 0.158785 0.948058
0.541497 0.0299382 0.957153
0.901656 0.0422217 0.969345
0.982544 0.0534829 0.978805
0.983459 0.0791485 0.983459
0.984039 0.300679 0.984039
0 0.548638 0.866468
0 0.545022 0.871092
0 0.541482 0.883238
0 0.517128 0.910155
0.463478 0.480797 0.96257
0.853971 0.388006 0.976806
0.983368 0.0799573 0.971405
0.983505 0.080827 0.983505
0.983566 0.455604 0.983566
0 0.794034 0.892638
0 0.792828 0.894759
0 0.79173 0.898161
0 0.783383 0.904204
0.262318 0.773495 0.934478
0.756237 0.753918 0.945571
0.978363 0.700404 0.946471
0.98407 0.354437 0.970916
0.983963 0.418006 0.98114
0.173266 0.946365 0.924941
0.174945 0.946242 0.924865
0.184344 0.945922 0.924559
0.210925 0.943984 0.922896
0.300603 0.941115 0.920546
0.712764 0.941649 0.93077
0.934798 0.934722 0.935332
0.990005 0.914626 0.936263
0.984375 0.719112 0.916167
0.266789 0.982574 0.920516
0.26714 0.982574 0.919356
0.274601 0.982544 0.917586
0.294896 0.982727 0.911925
0.457786 0.984039 0.913634
0.724086 0.988968 0.924071
0.91751 0.993545 0.936431
0.989212 0.991348 0.941299
0.994339 0.989944 0.930877
0.554589 0.985367 0.920943
0.554314 0.985367 0.919676
0.576776 0.985702 0.921172
0.624582 0.986618 0.924437
0.701503 0.988373 0.930007
0.808774 0.990875 0.934859
0.918227 0.993698 0.944625
0.982437 0.993912 0.950011
0.994079 0.993088 0.95227
0 0.154162 0.957855
0 0.138628 0.966537
0 0.114504 0.969162
0.252064 0.00155642 0.975586
0.590249 0 0.975937
0.886152 0.00700389 0.978225
0.9823 0.0473487 0.9823
0.98294 0.0635843 0.98294
0.983551 0.0830091 0.983551
0 0.147799 0.954437
0 0.145083 0.95787
0 0.120073 0.96875
0.225956 0.0102693 0.975235
0.579019 0 0.975875
0.880903 0.00726329 0.97818
0.982269 0.0469062 0.982269
0.982925 0.0628672 0.982925
0.98349 0.0803693 0.98349
0 0.171008 0.940688
0 0.168902 0.944442
0 0.169772 0.95845
0.0364538 0.084184 0.971237
0.534829 0.00552377 0.975952
0.892729 0.0285496 0.979232
0.982361 0.0483406 0.982361
0.983093 0.0653697 0.983093
0.983658 0.0904707 0.983658
0 0.316548 0.921096
0 0.31458 0.925277
0 0.335256 0.944121
0 0.32311 0.959915
0.47837 0.216861 0.978973
0.847501 0.057557 0.980331
0.982437 0.0519722 0.982437
0.983215 0.0677806 0.983215
0.98439 0.134035 0.98439
0 0.570855 0.923552
0 0.569863 0.927306
0 0.574182 0.937148
0 0.562203 0.957153
0.398474 0.539101 0.971817
0.803937 0.479927 0.982467
0.984298 0.181735 0.984298
0.983124 0.0703136 0.983124
0.984207 0.333227 0.984207
0 0.798016 0.939635
0 0.797574 0.941527
0 0.797742 0.945129
0 0.791714 0.951202
0.223926 0.779812 0.968597
0.728664 0.759793 0.979355
0.967437 0.708614 0.981994
0.983673 0.437858 0.983673
0.984192 0.284199 0.984192
0.106462 0.937423 0.964401
0.106386 0.937179 0.965087
0.115908 0.937163 0.966232
0.151263 0.935622 0.968078
0.251499 0.926436 0.971222
0.685756 0.924285 0.985565
0.923735 0.924697 0.986114
0.989197 0.900877 0.986587
0.981674 0.696681 0.981674
0.266178 0.981842 0.969497
0.26714 0.981811 0.969482
0.274189 0.98172 0.969467
0.292332 0.980987 0.968933
0.443809 0.983261 0.973861
0.713558 0.985275 0.979171
0.911864 0.986557 0.983795
0.985138 0.985138 0.985229
0.993851 0.984833 0.987579
0.522866 0.983886 0.969528
0.524941 0.983917 0.969284
0.550378 0.984268 0.97023
0.604639 0.985321 0.972274
0.685359 0.987259 0.975219
0.794049 0.990448 0.978531
0.919036 0.993423 0.981933
0.980682 0.993729 0.984848
0.993515 0.993484 0.986236
0 0.226703 0.946227
0 0.201236 0.952575
0 0.181659 0.964462
0 0.118624 0.968948
0.503594 0.0233921 0.976196
0.869413 0.0318303 0.979232
0.981704 0.0395056 0.981704
0.982559 0.0530404 0.982559
0.983169 0.0712902 0.983185
0 0.194202 0.94876
0 0.194385 0.950088
0 0.176684 0.963592
0 0.114488 0.969345
0.502098 0.0125277 0.976074
0.865858 0.0295262 0.979019
0.981643 0.0387274 0.981659
0.982528 0.0525063 0.982528
0.983108 0.0700847 0.983108
0 0.24625 0.940475
0 0.250858 0.942855
0 0.36466 0.956939
0 0.323262 0.959915
0.442771 0.223224 0.978515
0.815076 0.0601053 0.980179
0.98291 0.0609903 0.98291
0.98262 0.0542306 0.98262
0.983383 0.0747997 0.983383
0 0.400885 0.939971
0 0.405753 0.943038
0 0.465003 0.95819
0 0.512184 0.964446
0.372168 0.474632 0.973602
0.790906 0.407446 0.982834
0.983749 0.085771 0.983749
0.982681 0.0555123 0.982681
0.98349 0.0803082 0.98349
0 0.610376 0.938308
0 0.613901 0.941314
0 0.638605 0.94786
0 0.655848 0.956832
0.215183 0.675425 0.96698
0.730556 0.656199 0.976257
0.981964 0.554238 0.981964
0.983001 0.0601053 0.983001
0.983612 0.0876936 0.983612
0 0.813046 0.955612
0 0.815427 0.957626
0 0.821042 0.961288
0 0.822919 0.96669
0.17969 0.81677 0.970489
0.696498 0.810987 0.977539
0.943099 0.775708 0.984253
0.981079 0.623148 0.981079
0.983658 0.0903944 0.983658
0.0540017 0.938476 0.97612
0.054551 0.938659 0.976715
0.0698863 0.93933 0.977111
0.124208 0.938445 0.977859
0.255253 0.929885 0.978988
0.688502 0.928679 0.987594
0.912795 0.929381 0.989868
0.989456 0.909529 0.989456
0.983368 0.755093 0.983368
0.273518 0.978134 0.981231
0.274189 0.978058 0.981445
0.280491 0.978088 0.981811
0.296895 0.977539 0.982071
0.449226 0.980636 0.983383
0.703029 0.981674 0.987427
0.9028 0.983398 0.992462
0.982254 0.982879 0.993469
0.99321 0.976852 0.99321
0.511498 0.983413 0.983948
0.514214 0.983368 0.983932
0.541695 0.983734 0.98436
0.602075 0.984619 0.985458
0.683482 0.986572 0.98735
0.790509 0.989914 0.990448
0.914717 0.993347 0.993545
0.980163 0.993576 0.993606
0.993469 0.993469 0.993469
