reference/TheOneLUT_iPhone15Pro_AppleLog_Arri709_V5_33pt.cube
TITLE "TheOneLut_iPhone15Pro_AppleLog>Arri709_V5.cube"
LUT_3D_SIZE 5
0 0 0
0.198764 0 0.00247196
0.527504 0 0.0188754
0.975036 0.167514 0.245304
1 0 0.868528
0 0.0665904 0
0.0605783 0.0346227 0
0.504402 0.00256352 0.0126955
0.971542 0.298436 0.190555
1 0 0.796613
0 0.387869 0
0 0.395178 0
0.434119 0.424643 0
0.958709 0.474861 0.191196
1 0 0.64152
0 0.880522 0.415061
0 0.859205 0.481666
0 0.802792 0.570275
0.85301 0.8645 0.278264
1 0.804623 0.656138
0 1 0.995651
0 1 0.995651
0 1 0.995651
0 1 0.980148
1 1 0.551522
0 0 0.113481
0.200473 0 0.124544
0.583871 0 0.14461
0.972335 0.188998 0.383185
1 0 0.882017
0 0.0749371 0.0437781
0.0507668 0.0678111 0.0645762
0.511147 0.00341802 0.0976272
0.968795 0.299214 0.366934
1 0 0.811948
0 0.387839 0
0 0.423255 0.182177
0.432029 0.429374 0.0187533
0.955978 0.474723 0.332296
1 0 0.675639
0 0.870359 0.42591
0 0.849577 0.483253
0 0.792187 0.570413
0.850797 0.85948 0.38819
1 0.802304 0.679316
0 1 0.995651
0 1 0.995651
0 1 0.995651
0 1 0.981537
1 1 0.597879
0 0 0.412009
0.169894 0 0.426307
0.53753 0 0.437888
0.972747 0 0.514122
1 0 0.901579
0 0 0.400351
0.0037232 0 0.418418
0.523018 0 0.439033
0.965331 0.300359 0.528862
1 0 0.836225
0 0.388968 0.352834
0 0.419425 0.390112
0.421805 0.420218 0.41976
0.950317 0.475761 0.514397
1 0 0.739361
0 0.846006 0.45388
0 0.826062 0.489326
0 0.768612 0.567956
0.846738 0.850874 0.515465
1 0.797909 0.726116
0 1 0.995651
0 1 0.995651
0 1 0.995651
0 1 0.984131
1 1 0.679759
0 0.0593271 0.854887
0.271565 0.0535744 0.855909
0.56466 0.0495613 0.860624
0.958404 0 0.878813
1 0 0.906294
0 0.240833 0.854383
0.117815 0.226596 0.85478
0.534203 0.240925 0.858976
0.951507 0 0.877119
1 0 0.926619
0 0.426642 0.77734
0 0.466041 0.817838
0.442481 0.445609 0.8551
0.93463 0.388861 0.873045
1 0.000198367 0.921981
0 0.771862 0.77734
0 0.753323 0.760037
0 0.8038 0.810513
0.833066 0.817761 0.852354
1 0.785733 0.903044
0 1 0.995651
0 1 0.995651
0 1 0.995651
0 1 0.98703
0.996506 0.999786 0.894987
0.587564 0.830808 1
0.639261 0.830381 1
0.74696 0.83122 1
0.920882 0.852705 1
1 0.732982 1
0.556451 0.83595 1
0.616403 0.835264 1
0.732708 0.835615 1
0.919722 0.854948 1
1 0.745144 1
0.41062 0.848936 0.999863
0.526116 0.847562 1
0.692119 0.845838 1
0.91603 0.859495 1
1 0.772885 1
0 0.943603 0.996857
0 0.936156 0.996414
0 0.905837 0.994537
0.873091 0.887602 0.999054
1 0.877409 0.999969
0 1 0.995651
0 1 0.995651
0 1 0.995651
0 0.995819 0.988281
0.990677 0.98587 0.995483
