reference/TheOneLUT_iPhone15Pro_AppleLog_Arri709_V5_33pt.cube
TITLE "TheOneLut_iPhone15Pro_AppleLog>Arri709_V5.cube"
LUT_3D_SIZE 33
0 0 0
0 0 0
0 0 0
0.0372168 0 0.000274662
0.0818494 0 0.00062562
0.115969 0 0.0010071
0.145846 0 0.00143435
0.171359 0 0.00190738
0.198764 0 0.00247196
0.232563 0 0.00331121
0.273854 0 0.00460822
0.321065 0 0.00636301
0.373388 0 0.00869764
0.429404 0 0.011841
0.485039 0 0.0156252
0.512169 0 0.0175631
0.527504 0 0.0188754
0.600198 0 0.025452
0.677729 0 0.0339208
0.724636 0 0.0396887
0.767056 0 0.0456092
0.804868 0 0.0524453
0.851728 0 0.112596
0.924361 0 0.177844
0.975036 0.167514 0.245304
0.998734 0.343114 0.314015
1 0.467857 0.354192
1 0.564187 0.44242
1 0.633204 0.511833
1 0.684001 0.566308
1 0.706844 0.605661
1 0 0.600412
1 0 0.868528
0 0 0
0 0 0
0 0 0
0 0 0
0.00852979 0 6.10361e-05
0.0135195 0 0.000106813
0.0886702 0 0.000701915
0.124651 0 0.00112917
0.155978 0 0.0016022
0.189624 0 0.00225834
0.228504 0 0.00321965
0.273381 0 0.00459297
0.323705 0 0.00648508
0.375311 0 0.00880446
0.397742 0 0.010071
0.453971 0 0.0126345
0.515816 0 0.0178683
0.582483 0 0.0236362
0.643076 0 0.0298619
0.693431 0 0.0358129
0.741787 0 0.0420844
0.794324 0 0.0495613
0.862165 0 0.111803
0.925566 0.00956741 0.172671
0.973632 0.223224 0.239612
0.99852 0.357824 0.30811
1 0.480385 0.346975
1 0.569497 0.432135
1 0.63595 0.508141
1 0.685924 0.564218
1 0.708827 0.60412
1 0 0.61593
1 0 0.843626
0 0 0
0 0 0
0 0 0
0 0 0
0 0 0
0.00370794 0 3.0518e-05
0.0186465 0 0.000137331
0.093431 0 0.000762951
0.132403 0 0.00123598
0.170092 0 0.00187686
0.210697 0 0.00276188
0.256443 0 0.00402838
0.305516 0 0.00569161
0.351965 0 0.00770581
0.387915 0 0.00868238
0.449073 0 0.0119936
0.511315 0 0.0172122
0.574563 0 0.0229191
0.632547 0 0.0287785
0.684947 0 0.0347906
0.738201 0 0.0415808
0.798367 0 0.0487221
0.86537 0 0.112016
0.925673 0.0611429 0.170886
0.972961 0.241962 0.237552
0.998062 0.372305 0.246296
0.999969 0.485359 0.344656
1 0.57171 0.42948
1 0.637247 0.506584
1 0.686854 0.563302
1 0.709621 0.60354
1 0 0.616571
1 0 0.833494
0 0 0
0 0 0
0 0 0
0 0 0
0 0 0
0.00337224 0 3.0518e-05
0.0335241 0 0.000244144
0.0749218 0 0.000564584
0.110735 0 0.000946059
0.148547 0 0.00148013
0.191058 0 0.00228885
0.239078 0 0.00347906
0.290547 0 0.00515755
0.327138 0 0.00624094
0.384482 0 0.00788891
0.446571 0 0.0117037
0.50837 0 0.0165408
0.569543 0 0.0224918
0.626368 0 0.0281529
0.681605 0 0.0343938
0.738338 0 0.0410163
0.80235 0 0.0509194
0.867155 0 0.112963
0.925734 0.0978866 0.170413
0.972519 0.254917 0.236027
0.998169 0.376867 0.254887
0.999954 0.489174 0.342855
1 0.573434 0.427604
1 0.638315 0.505592
1 0.687556 0.562905
1 0.710231 0.603067
1 0 0.615915
1 0 0.825483
0 0 0
0 0 0
0 0 0
0 0 0
0 0 0
0.00315862 0 3.0518e-05
0.0294957 0 0.000213626
0.0611582 0 0.000457771
0.0963302 0 0.000793469
0.133669 0 0.0012665
0.174517 0 0.00196841
0.223545 0 0.00309758
0.269871 0 0.00447089
0.32163 0.000793469 0.00515755
0.382666 0 0.00758373
0.444846 0 0.011429
0.506111 0 0.0158694
0.565789 0 0.0221714
0.623392 0 0.0278325
0.680049 0 0.0337072
0.741161 0 0.0395972
0.805524 0 0.054078
0.868116 0 0.114397
0.925887 0.124056 0.170199
0.972229 0.265095 0.235401
0.998291 0.38114 0.262577
0.999939 0.492332 0.341833
1 0.574914 0.426123
1 0.639246 0.504814
1 0.688212 0.562509
1 0.71075 0.602716
1 0 0.614633
1 0 0.818998
0 0.00877394 0
0 0 0
0 0 0
0 0 0
0 0 0
0.00430304 0 3.0518e-05
0.0229343 0 0.000167849
0.0471046 0 0.000335698
0.0740826 0.00404364 0.000427253
0.106538 0.00872816 0.000396735
0.148806 0.00994888 0.00047303
0.198825 0.00793469 0.00120546
0.259556 0.00190738 0.00331121
0.317662 0.00117494 0.00474556
0.380636 0 0.00741588
0.443427 0 0.0110781
0.504646 0 0.0152285
0.563363 0 0.0214084
0.621927 0 0.0267491
0.681437 0 0.0323644
0.743938 0 0.038117
0.80766 0 0.0565347
0.868894 0.0134585 0.115908
0.925765 0.143191 0.170214
0.971893 0.27335 0.235035
0.998352 0.385718 0.262943
0.999939 0.495018 0.341222
1 0.576272 0.425025
1 0.640116 0.504021
1 0.688777 0.562264
1 0.711177 0.602579
1 0 0.612467
1 0 0.812894
0 0.0251774 0
0 0.0118563 0
0 0.0102998 0
0 0.00918593 0
0 0.00839246 0
0.00302129 0.00352483 0
0.0243076 0.00555428 0.000122072
0.0369879 0.0080415 0.000137331
0.0677348 0.00999466 0.000183108
0.103441 0.0117037 0.000198367
0.14641 0.0116732 0.000274662
0.193713 0.0100862 0.000823987
0.253986 0.00369268 0.00285344
0.314488 0.00138857 0.00451667
0.378042 0.000228885 0.00701915
0.441962 0.000228885 0.010544
0.503914 0 0.0146181
0.561471 0 0.0204623
0.622629 0 0.0254978
0.683391 0 0.0310521
0.744717 0 0.0363928
0.807431 0 0.0404822
0.869444 0.0342107 0.117617
0.925704 0.158282 0.170245
0.971893 0.288197 0.178256
0.998459 0.390204 0.262898
0.999939 0.497459 0.340612
1 0.577523 0.424216
1 0.640925 0.503227
1 0.689342 0.561975
1 0.711559 0.602472
1 0 0.609628
1 0 0.807538
0 0.0418402 0
0 0.0264439 0
0 0.0247196 0
0 0.0234226 0
0 0.0225223 0
0 0.0210117 0
0.016083 0.0161593 1.5259e-05
0.0394598 0.0168002 1.5259e-05
0.05832 0.0202487 0
0.0956741 0.0217594 0
0.139406 0.0206607 0
0.18703 0.0187533 0.00030518
0.2448 0.00972 0.00167849
0.310597 0.00762951 0.0034638
0.375799 0.00669871 0.00593576
0.441016 0.00138857 0.00973526
0.503899 0 0.0140078
0.560052 0 0.0197147
0.623789 0 0.0242771
0.685374 0 0.0295109
0.74696 0 0.0345464
0.809079 0.00363165 0.0381781
0.870039 0.0506142 0.119738
0.925597 0.171221 0.171023
0.971832 0.293248 0.184329
0.998566 0.394568 0.262913
0.999939 0.499718 0.34023
1 0.578714 0.423651
1 0.641672 0.50248
1 0.68986 0.561761
1 0.71191 0.602319
1 0 0.606409
1 0 0.802548
0 0.0665904 0
0 0.0464942 0
0 0.0443732 0
0 0.0429236 0
0 0.0417945 0
0 0.0413672 0
0.00111391 0.0396887 0
0.0270085 0.0340124 0
0.0605783 0.0346227 0
0.0839551 0.0393683 0
0.127779 0.0407721 0
0.17882 0.036759 0
0.235996 0.0282444 0.000137331
0.302708 0.0235752 0.00175479
0.373617 0.0225223 0.00407416
0.441672 0.0133364 0.00766003
0.504402 0.00256352 0.0126955
0.559503 0 0.0186313
0.625772 0 0.0225681
0.687327 0 0.0275883
0.748547 0 0.0324407
0.810178 0.0159152 0.0398871
0.870329 0.0785077 0.122057
0.924727 0.193759 0.121889
0.971542 0.298436 0.190555
0.998672 0.399756 0.262898
0.999939 0.502297 0.339406
1 0.580041 0.422889
1 0.642481 0.50161
1 0.690425 0.561502
1 0.712352 0.602152
1 0 0.603555
1 0 0.796613
0 0.0940719 0
0 0.0762951 0
0 0.0739147 0
0 0.0726024 0
0 0.0717632 0
0 0.0711223 0
0 0.071046 0
0 0.0704356 0
0.0404364 0.0631723 0
0.0847334 0.0637827 0
0.114336 0.0707561 0
0.166445 0.0700847 0
0.226032 0.0620432 0
0.294041 0.0560464 0
0.36965 0.0517433 0.00140383
0.441321 0.0448615 0.004654
0.507057 0.0309148 0.00923171
0.565301 0.00419623 0.0153506
0.627161 0.00442512 0.0206455
0.688792 0.00555428 0.0250248
0.749722 0.0179751 0.029099
0.809903 0.0500954 0.0319371
0.869535 0.114992 0.0873579
0.924773 0.208392 0.13463
0.971222 0.303258 0.194034
0.998779 0.406394 0.263066
0.999939 0.505379 0.339193
1 0.581674 0.421775
1 0.643473 0.500053
1 0.691142 0.560922
1 0.712932 0.60177
1 0 0.602365
1 0 0.788403
0 0.123537 0
0 0.107912 0
0 0.105531 0
0 0.104738 0
0 0.104143 0
0 0.103975 0
0 0.104051 0
0 0.104585 0
0.00259403 0.105104 0
0.0575723 0.0990311 0
0.114824 0.0991684 0
0.152758 0.106737 0
0.21474 0.103044 0
0.28542 0.0962234 0
0.36199 0.091249 0
0.438972 0.0854047 0.00103761
0.508034 0.0779889 0.00433356
0.570169 0.0631571 0.00970474
0.631022 0.0561227 0.0148165
0.689769 0.0370794 0.021622
0.750515 0.0533303 0.025452
0.810651 0.0901808 0.0275273
0.869764 0.143526 0.0963149
0.924392 0.225513 0.143481
0.970611 0.311925 0.195148
0.998871 0.414786 0.263752
0.999939 0.509133 0.338674
1 0.583658 0.420249
1 0.644633 0.49807
1 0.691966 0.560311
1 0.713649 0.601526
1 0 0.603555
1 0 0.778042
0 0.155444 0
0 0.143145 0
0 0.139254 0
0 0.138918 0
0 0.139071 0
0 0.139376 0
0 0.139849 0
0 0.140642 0
0 0.142092 0
0.00434882 0.143984 0
0.0823072 0.139467 0
0.151919 0.138567 0
0.198642 0.145907 0
0.273075 0.139193 0
0.352132 0.13434 0
0.432532 0.129671 0
0.506615 0.125536 0.00015259
0.57171 0.118288 0.00343328
0.633509 0.117266 0.00688182
0.692927 0.116091 0.0121309
0.751125 0.100847 0.019791
0.810224 0.1234 0.0221256
0.868711 0.172229 0.0705425
0.923629 0.240909 0.146212
0.969787 0.325841 0.197375
0.998993 0.425681 0.265202
0.999939 0.513619 0.338064
1 0.586038 0.419028
1 0.646082 0.49601
1 0.693019 0.55938
1 0.714595 0.600916
1 0 0.606714
1 0 0.764462
0 0.191226 0
0 0.182864 0
0 0.176532 0
0 0.176791 0
0 0.177249 0
0 0.17821 0
0 0.179583 0
0 0.181094 0
0 0.182696 0
0 0.185336 0
0.00909438 0.187808 0
0.111543 0.184634 0
0.195895 0.181964 0
0.253864 0.18912 0
0.338384 0.181323 0
0.420722 0.177462 0
0.50013 0.172259 0
0.569711 0.169696 0
0.634241 0.171786 0.00135805
0.693919 0.175677 0.0010071
0.752758 0.180041 0.00494392
0.810346 0.17319 0.0163424
0.867704 0.201709 0.069749
0.92253 0.26389 0.148821
0.968612 0.345312 0.202228
0.998917 0.437644 0.268162
0.999939 0.519173 0.338781
1 0.588968 0.41767
1 0.647852 0.493599
1 0.69427 0.558358
1 0.715831 0.600076
1 0 0.611597
1 0 0.747143
0 0.232395 0
0 0.228229 0
0 0.221912 0
0 0.220172 0
0 0.22092 0
0 0.222263 0
0 0.223499 0
0 0.224613 0
0 0.225528 0
0 0.226505 0
0 0.235599 0
0.0106966 0.238941 0
0.144869 0.236378 0
0.249058 0.232624 0
0.31635 0.240314 0
0.405615 0.232776 0
0.48809 0.234211 0
0.563622 0.223926 0
0.631006 0.224155 0
0.693187 0.230365 0
0.751919 0.2421 0
0.80972 0.255207 0.00540169
0.866346 0.259571 0.0667887
0.920684 0.301213 0.1234
0.967453 0.371801 0.208652
0.998871 0.451164 0.272221
0.999939 0.525887 0.340719
1 0.592569 0.416953
1 0.650004 0.491875
1 0.695827 0.556909
1 0.717342 0.599268
1 0 0.614069
1 0 0.724025
0 0.280919 0
0 0.280507 0
0 0.276555 0
0 0.273442 0
0 0.272847 0
0 0.273457 0
0 0.274434 0
0 0.275319 0
0 0.276051 0
0 0.276722 0
0 0.280064 0
0 0.296162 0
0.0156558 0.297215 0
0.187869 0.295537 0
0.308782 0.292241 0
0.381964 0.30045 0
0.475151 0.298726 0
0.549889 0.292073 0
0.623331 0.283803 0
0.689113 0.285817 0
0.749783 0.295018 0
0.807416 0.308568 0.00236515
0.863935 0.332723 0.0590066
0.917784 0.355489 0.121447
0.964935 0.402731 0.181445
0.998718 0.466789 0.276783
0.999908 0.533852 0.344762
1 0.596902 0.417517
1 0.652659 0.489906
1 0.697704 0.555093
1 0.719295 0.59823
1 0 0.614969
1 0 0.694545
0 0.333867 0
0 0.337758 0
0 0.33695 0
0 0.335042 0
0 0.333532 0
0 0.332692 0
0 0.332601 0
0 0.332738 0
0 0.333059 0
0 0.333242 0
0 0.345327 0
0 0.355016 0
0 0.359625 0
0.0324407 0.359777 0
0.243046 0.358175 0
0.373922 0.36202 0
0.448737 0.367193 0
0.533761 0.360815 0
0.608377 0.351995 0
0.680598 0.347478 0
0.744854 0.351324 0
0.803998 0.359869 0.00746166
0.860273 0.37734 0.0604868
0.914168 0.407507 0.118639
0.961883 0.439231 0.186419
0.998566 0.485313 0.281788
0.999786 0.543587 0.351156
1 0.60206 0.421088
1 0.655848 0.489769
1 0.699992 0.553384
1 0.721752 0.59678
1 0 0.615091
1 0 0.653162
0 0.387869 0
0 0.393927 0
0 0.396246 0
0 0.397269 0
0 0.397406 0
0 0.397589 0
0 0.397757 0
0 0.397696 0
0 0.395178 0
0 0.400015 0
0 0.406195 0
0 0.413504 0
0 0.421668 0
0 0.423941 0
0.08159 0.424063 0
0.305119 0.421897 0
0.434119 0.424643 0
0.506493 0.429496 0
0.589136 0.42153 0
0.664729 0.41445 0
0.735531 0.412268 0
0.798459 0.415137 0
0.85568 0.425559 0.0646677
0.910033 0.44477 0.123949
0.958709 0.474861 0.191196
0.997024 0.510414 0.262608
0.999283 0.555505 0.358175
1 0.608515 0.427832
1 0.659693 0.492836
1 0.702785 0.552682
1 0.724788 0.595697
1 0.210712 0.614389
1 0 0.64152
0 0.440406 0.0123903
0 0.442649 0.0114748
0 0.452018 0
0 0.455024 0
0 0.456733 0
0 0.456779 0
0 0.456291 0
0 0.45623 0
0 0.456519 0
0 0.458198 0
0 0.462211 0
0 0.468635 0
0 0.477043 0
0 0.486122 0
0 0.487785 0
0.16379 0.489815 0
0.368658 0.484565 0
0.490929 0.484077 0
0.561578 0.489113 0
0.6439 0.482155 0
0.719402 0.47631 0
0.788785 0.474952 0
0.849729 0.477531 0.0399176
0.904738 0.488212 0.137362
0.95433 0.507088 0.19765
0.993271 0.536263 0.266545
0.998199 0.573846 0.336538
1 0.616724 0.436545
1 0.664317 0.500298
1 0.706111 0.554757
1 0.728374 0.595254
1 0.368154 0.615305
1 0 0.663706
0 0.492195 0.0579995
0 0.497261 0.0250553
0 0.50103 0.00468452
0 0.503929 0
0 0.506249 0
0 0.508156 0
0 0.509194 0
0 0.509117 0
0 0.509148 0
0 0.509514 0
0 0.511299 0
0 0.515846 0
0 0.52401 0
0 0.535241 0
0 0.54725 0
0 0.548531 0
0.243641 0.546639 0
0.430884 0.545068 0
0.545922 0.542916 0
0.616541 0.548394 0
0.697993 0.541238 0
0.772808 0.536583 0
0.840131 0.534371 0
0.898543 0.536507 0.131624
0.94873 0.546578 0.214343
0.989029 0.565332 0.274876
0.997971 0.593774 0.339818
1 0.631327 0.407248
1 0.67042 0.509758
1 0.710201 0.559579
1 0.732738 0.597177
1 0.472831 0.61857
1 0 0.664469
0 0.541039 0.142901
0 0.542473 0.137865
0 0.544259 0.13019
0 0.54641 0.12163
0 0.548836 0.111284
0 0.551186 0.0956893
0 0.553292 0.074464
0 0.555261 0.0557107
0 0.558083 0.0257877
0 0.56173 0
0 0.566171 0
0 0.570764 0
0 0.573617 0
0 0.580163 0
0 0.59263 0
0 0.607141 0
0 0.606912 0
0.315068 0.604944 0
0.489967 0.603937 0
0.600214 0.60177 0
0.670558 0.606271 0
0.750942 0.598383 0
0.824765 0.594583 0
0.889113 0.591134 0.024033
0.942321 0.592203 0.220203
0.983108 0.602335 0.290913
0.997848 0.620478 0.346136
1 0.64773 0.409506
1 0.682704 0.47631
1 0.715633 0.56556
1 0.738064 0.601511
1 0.556176 0.626322
1 0.2925 0.66424
0 0.595209 0.223285
0 0.591821 0.224231
0 0.590875 0.222446
0 0.590478 0.219715
0 0.590295 0.216587
0 0.590433 0.213474
0 0.59089 0.210437
0 0.591546 0.207034
0 0.592615 0.201862
0 0.59411 0.192782
0 0.597406 0.177935
0 0.602869 0.144274
0 0.610742 0.0439307
0 0.62153 0
0 0.630549 0
0 0.64332 0
0 0.662913 0
0 0.664561 0
0.379049 0.662531 0
0.546883 0.661112 0
0.653346 0.6589 0
0.72343 0.662409 0
0.802899 0.653819 0
0.8748 0.650431 0
0.933501 0.645762 0.128511
0.976516 0.645823 0.299702
0.995773 0.65594 0.361364
1 0.672938 0.416953
1 0.697261 0.478614
1 0.726482 0.537972
1 0.744564 0.607782
1 0.625772 0.639017
1 0.454108 0.66865
0 0.659953 0.304219
0 0.654154 0.314382
0 0.650874 0.317021
0 0.648508 0.318273
0 0.646662 0.318807
0 0.64509 0.318929
0 0.643763 0.318791
0 0.642588 0.318395
0 0.641291 0.317891
0 0.639826 0.316838
0 0.638193 0.314672
0 0.63714 0.311574
0 0.637064 0.306981
0 0.640391 0.299062
0 0.650965 0.278462
0 0.669963 0.196841
0 0.696666 0
0 0.719478 0
0 0.722652 0
0.442512 0.720043 0
0.602182 0.71664 0
0.705394 0.713909 0
0.775769 0.717235 0
0.854078 0.708156 0
0.920714 0.705242 0
0.967712 0.698466 0.234928
0.994476 0.698146 0.375921
1 0.707286 0.435019
1 0.722164 0.486168
1 0.740871 0.540932
1 0.756603 0.584741
1 0.67892 0.654047
1 0.56231 0.679408
0 0.732052 0.329442
0 0.726055 0.353674
0 0.722927 0.36495
0 0.720562 0.372992
0 0.718608 0.378988
0 0.716838 0.38381
0 0.715206 0.387655
0 0.713695 0.390982
0 0.711894 0.394812
0 0.709621 0.399145
0 0.706767 0.404074
0 0.703273 0.409064
0 0.697871 0.412726
0 0.691081 0.414237
0 0.684153 0.413962
0 0.680385 0.412512
0 0.691371 0.418509
0 0.7196 0.415229
0 0.759808 0.267277
0 0.776974 0
0.502007 0.775418 0
0.656611 0.771435 0
0.756756 0.767132 0
0.827283 0.770886 0
0.900954 0.761654 0
0.955688 0.759304 0
0.990524 0.749996 0.321599
0.998901 0.748501 0.454566
1 0.756374 0.508904
1 0.767269 0.550683
1 0.774075 0.591348
1 0.736446 0.590631
1 0.648829 0.695094
0 0.819394 0.262867
0 0.812863 0.304494
0 0.809262 0.323262
0 0.8065 0.337209
0 0.804166 0.348562
0 0.802152 0.358221
0 0.800259 0.366354
0 0.798489 0.373693
0 0.796262 0.382437
0 0.793362 0.393011
0 0.7897 0.405646
0 0.785214 0.419669
0 0.779522 0.436851
0 0.772213 0.454887
0 0.763088 0.47303
0 0.751995 0.489769
0 0.7364 0.497993
0 0.723751 0.499596
0 0.751476 0.525765
0 0.798489 0.506065
0.0131991 0.825315 0.0442206
0.566537 0.826215 0
0.710582 0.825376 0
0.807126 0.817853 0.0474861
0.874449 0.823438 0
0.937377 0.815045 0
0.981186 0.812955 0
0.998154 0.800443 0.397604
1 0.797696 0.521035
1 0.802915 0.569482
1 0.805417 0.603967
1 0.777615 0.612436
1 0.744533 0.598932
0 0.880522 0.415061
0 0.87451 0.436027
0 0.871244 0.446769
0 0.868727 0.454841
0 0.866545 0.461463
0 0.864607 0.466911
0 0.862882 0.471626
0 0.861219 0.476219
0 0.859205 0.481666
0 0.856657 0.488304
0 0.85333 0.497139
0 0.849104 0.50753
0 0.843748 0.518715
0 0.836759 0.531762
0 0.827863 0.545983
0 0.816587 0.559991
0 0.802792 0.570275
0 0.785077 0.571786
0 0.769543 0.564736
0 0.811109 0.595789
0 0.861921 0.527779
0.310506 0.872206 0.225788
0.633143 0.873732 0.129747
0.76437 0.877287 0
0.85301 0.8645 0.278264
0.912016 0.87303 3.0518e-05
0.964691 0.867399 0
0.993561 0.864744 0
1 0.848432 0.46656
1 0.843061 0.580682
1 0.842908 0.621729
1 0.827146 0.635645
1 0.804623 0.656138
0 0.923781 0.566415
0 0.91902 0.576486
0 0.916411 0.581674
0 0.914382 0.585779
0 0.912657 0.589105
0 0.911162 0.592004
0 0.909804 0.594507
0 0.908492 0.597025
0 0.906844 0.599985
0 0.904738 0.603677
0 0.902113 0.607782
0 0.898787 0.612696
0 0.894545 0.618769
0 0.889174 0.625849
0 0.882429 0.633616
0 0.87245 0.640986
0 0.859617 0.646357
0 0.844282 0.646784
0 0.823987 0.635126
0 0.825101 0.635843
0 0.877821 0.664591
0 0.908385 0.486381
0.497978 0.913359 0.362188
0.698161 0.914748 0.308278
0.816754 0.923919 0
0.890288 0.904494 0.421515
0.940352 0.915663 0.147295
0.983948 0.915938 0
1 0.912673 0
1 0.890455 0.532631
1 0.881117 0.638331
1 0.872724 0.665125
1 0.860822 0.68191
0 0.944503 0.706432
0 0.941115 0.709834
0 0.939269 0.711437
0 0.937804 0.712825
0 0.936568 0.713954
0 0.935485 0.714916
0 0.934493 0.715785
0 0.933562 0.716564
0 0.932448 0.717342
0 0.930999 0.718471
0 0.929091 0.719814
0 0.92668 0.721294
0 0.923629 0.722866
0 0.919783 0.724468
0 0.914275 0.725719
0 0.906661 0.726131
0 0.897353 0.72433
0 0.886061 0.718669
0 0.87245 0.70576
0 0.857527 0.688869
0 0.899168 0.730678
0 0.930816 0.697536
0.336507 0.946868 0.463737
0.62974 0.945052 0.47306
0.762798 0.946761 0.427008
0.864347 0.961791 0
0.919432 0.934813 0.538994
0.962219 0.948898 0.332448
0.994537 0.955856 0
1 0.952163 0
1 0.92282 0.602716
1 0.909636 0.69427
1 0.901915 0.717479
0 0.948394 0.809949
0 0.946273 0.809155
0 0.945113 0.808637
0 0.944213 0.808179
0 0.94345 0.807797
0 0.942687 0.807446
0 0.941909 0.807157
0 0.941176 0.806806
0 0.940276 0.806363
