reference/TheOneLUT_iPhone15Pro_AppleLog_Arri709_V5_33pt.cube
TITLE "TheOneLut_iPhone15Pro_AppleLog>Arri709_V5.cube"
LUT_3D_SIZE 9
0 0 0
0.0818494 0 0.00062562
0.198764 0 0.00247196
0.373388 0 0.00869764
0.527504 0 0.0188754
0.767056 0 0.0456092
0.975036 0.167514 0.245304
1 0.633204 0.511833
1 0 0.868528
0 0 0
0 0 0
0.0963302 0 0.000793469
0.269871 0 0.00447089
0.506111 0 0.0158694
0.741161 0 0.0395972
0.972229 0.265095 0.235401
1 0.639246 0.504814
1 0 0.818998
0 0.0665904 0
0 0.0417945 0
0.0605783 0.0346227 0
0.235996 0.0282444 0.000137331
0.504402 0.00256352 0.0126955
0.748547 0 0.0324407
0.971542 0.298436 0.190555
1 0.642481 0.50161
1 0 0.796613
0 0.191226 0
0 0.177249 0
0 0.182696 0
0.195895 0.181964 0
0.50013 0.172259 0
0.752758 0.180041 0.00494392
0.968612 0.345312 0.202228
1 0.647852 0.493599
1 0 0.747143
0 0.387869 0
0 0.397406 0
0 0.395178 0
0 0.421668 0
0.434119 0.424643 0
0.735531 0.412268 0
0.958709 0.474861 0.191196
1 0.659693 0.492836
1 0 0.64152
0 0.595209 0.223285
0 0.590295 0.216587
0 0.592615 0.201862
0 0.610742 0.0439307
0 0.662913 0
0.653346 0.6589 0
0.933501 0.645762 0.128511
1 0.697261 0.478614
1 0.454108 0.66865
0 0.880522 0.415061
0 0.866545 0.461463
0 0.859205 0.481666
0 0.843748 0.518715
0 0.802792 0.570275
0 0.861921 0.527779
0.85301 0.8645 0.278264
1 0.848432 0.46656
1 0.804623 0.656138
0 0.943832 0.848325
0 0.940108 0.842512
0 0.93817 0.839323
0 0.932784 0.832135
0 0.91809 0.806577
0 0.964553 0.860594
0.752956 0.984756 0.65037
0.959823 0.970123 0.735149
1 0.961334 0.74461
0 1 0.995651
0 1 0.995651
0 1 0.995651
0 1 0.995651
0 1 0.995651
0 1 0.995651
0 1 0.980148
0.841093 1 0
1 1 0.551522
0 0 0.0159609
0.090837 0 0.024918
0.20235 0 0.0300603
0.367315 0 0.0083772
0.58323 0 0.0465248
0.781308 0 0.126741
0.973114 0.188006 0.352422
1 0.632074 0.542168
1 0 0.878676
0 0.00175479 0
0 0 0
0.107012 0 0.000900282
0.258335 0.0100862 0.00195315
0.507927 0 0.0172274
0.749676 0 0.141787
0.970642 0.275639 0.336782
1 0.63798 0.53727
1 0 0.829664
0 0.0746014 0
0 0.0719158 0.00614939
0.0557412 0.0632792 0.00604257
0.251774 0.058854 0.00114443
0.508598 0.0169985 0.0258793
0.75462 0.00314336 0.13814
0.969696 0.297704 0.329076
1 0.641093 0.535821
1 0 0.807294
0 0.190509 0
0 0.204135 0.0338293
0 0.205585 0
0.197696 0.20116 0.0149233
0.507958 0.190555 0.0289616
0.753613 0.19057 0.120516
0.967147 0.347112 0.322484
1 0.646357 0.532357
1 0 0.757839
0 0.388235 0
0 0.411704 0.122377
0 0.422324 0.0770275
0 0.433692 0
0.43267 0.428077 0
0.735485 0.416358 0.0982834
0.956954 0.475059 0.289723
1 0.658244 0.52781
1 0 0.665354
0 0.591577 0.236545
0 0.587564 0.282383
0 0.592035 0.295521
0 0.611627 0.306264
0 0.671244 0
0.651759 0.657938 0
0.931701 0.641474 0.286961
1 0.694697 0.522011
1 0.453819 0.683497
0 0.873487 0.422461
0 0.859724 0.463935
0 0.852506 0.482734
0 0.837125 0.518486
0 0.795407 0.57052
0 0.862318 0.548409
0.851408 0.860899 0.360662
1 0.845243 0.510903
1 0.803021 0.672435
0 0.941848 0.846296
0 0.938109 0.84062
0 0.935775 0.837461
0 0.930144 0.830442
0 0.918166 0.809888
0 0.96408 0.865278
0.754116 0.983352 0.662608
0.959411 0.969039 0.743496
1 0.959442 0.758633
0 1 0.995651
0 1 0.995651
0 1 0.995651
0 1 0.995651
0 1 0.995651
0 1 0.995651
0 1 0.98117
0.841566 1 0
1 1 0.584512
0 0 0.113481
0.0898451 0 0.121401
0.200473 0 0.124544
0.362112 0 0.130373
0.583871 0 0.14461
0.775204 0 0.185779
0.972335 0.188998 0.383185
1 0.631998 0.554742
1 0 0.882017
0 0.00115969 0.0695048
0 0 0.0758221
0.107164 0 0.080415
0.271183 0 0.0877546
0.508659 0 0.0928054
0.743587 0 0.172869
0.969726 0.277256 0.371786
1 0.637736 0.549905
1 0 0.83357
0 0.0749371 0.0437781
0 0.069276 0.0546426
0.0507668 0.0678111 0.0645762
0.251057 0.0554513 0.0764172
0.511147 0.00341802 0.0976272
0.756054 0.00613413 0.19527
0.968795 0.299214 0.366934
1 0.640803 0.548272
1 0 0.811948
0 0.194156 0.00430304
0 0.203723 0.0205081
0 0.211872 0.104555
0.198611 0.207645 0.0608072
0.507271 0.191821 0.119341
0.754665 0.193179 0.203296
0.96672 0.348974 0.358923
1 0.646006 0.544457
1 0 0.761929
0 0.387839 0
0 0.412345 0.140398
0 0.423255 0.182177
0 0.440284 0
0.432029 0.429374 0.0187533
0.734524 0.417411 0.184314
0.955978 0.474723 0.332296
1 0.657862 0.537865
1 0 0.675639
0 0.591333 0.216831
0 0.58793 0.289693
0 0.593668 0.314992
0 0.61294 0.345174
0 0.672709 0
0.65098 0.656748 0.0430152
0.930968 0.639704 0.334218
1 0.694194 0.532937
1 0.453803 0.690135
0 0.870359 0.42591
0 0.856764 0.464988
0 0.849577 0.483253
0 0.83418 0.518288
0 0.792187 0.570413
0 0.860761 0.554269
0.850797 0.85948 0.38819
1 0.843992 0.527596
1 0.802304 0.679316
0 0.940978 0.845365
0 0.93724 0.839704
0 0.93463 0.836606
0 0.928985 0.829618
0 0.9187 0.812192
0 0.963561 0.86656
0.754742 0.982788 0.667613
0.959228 0.968597 0.747112
1 0.958618 0.76466
0 1 0.995651
0 1 0.995651
0 1 0.995651
0 1 0.995651
0 1 0.995651
0 1 0.995651
0 1 0.981537
0.841993 1 0
1 1 0.597879
0 0 0.25713
0.0809491 0 0.255436
0.195163 0 0.254154
0.354376 0 0.257527
0.587152 0 0.289601
0.762325 0 0.297627
0.970886 0.211093 0.439033
1 0.631891 0.580118
1 0 0.888518
0 0 0.203876
0 0 0.19855
0.101656 0 0.203082
0.272343 0 0.21001
0.512673 0 0.230732
0.748928 0 0.281926
0.968063 0.286015 0.428717
1 0.637598 0.57528
1 0 0.841276
0 0.0492409 0.179767
0 0.0456092 0.200137
0.0434119 0.045243 0.200626
0.257725 0.0232395 0.211505
0.517555 0 0.234531
0.755169 0 0.279545
0.967254 0.30428 0.423926
1 0.640528 0.573541
1 0 0.820279
0 0.191516 0.156558
0 0.203067 0.177737
0 0.211139 0.188754
0.191989 0.208392 0.201709
0.504814 0.198657 0.219364
0.753933 0.198856 0.28835
0.965072 0.353155 0.414664
1 0.645411 0.569116
1 0 0.770199
0 0.391287 0.0711986
0 0.413443 0.10103
0 0.424414 0.147799
0 0.438819 0.279789
0.42977 0.42948 0.199512
0.731228 0.418357 0.2878
0.954498 0.473716 0.400916
1 0.657099 0.55964
1 0 0.694865
0 0.592248 0.1579
0 0.591943 0.268879
0 0.59881 0.316884
0 0.616861 0.386633
0 0.663386 0.353079
0.648737 0.653361 0.226841
0.929274 0.636271 0.402838
1 0.693141 0.554208
1 0.454444 0.7028
0 0.863996 0.432746
0 0.850599 0.46743
0 0.843519 0.484276
0 0.827817 0.51696
0 0.783963 0.568231
0 0.857816 0.566873
0.849607 0.856733 0.434913
1 0.841276 0.561044
1 0.800977 0.692836
0 0.939193 0.843381
0 0.93489 0.837827
0 0.932235 0.834836
0 0.926253 0.827527
0 0.921492 0.820249
0 0.962463 0.868498
0.755901 0.981643 0.677562
0.958892 0.967742 0.753719
1 0.957046 0.775464
0 1 0.995651
0 1 0.995651
0 1 0.995651
0 1 0.995651
0 1 0.995651
0 1 0.995651
0 1 0.98233
0.842496 1 0
1 1 0.623194
0 0 0.412009
0.0303197 0 0.428458
0.169894 0 0.426307
0.330907 0 0.43003
0.53753 0 0.437888
0.741085 0 0.459159
0.972747 0 0.514122
1 0.629755 0.65742
1 0 0.901579
0 0 0.369574
0 0 0.410819
0.0700542 0 0.415061
0.283284 0 0.420462
0.525032 0 0.435691
0.755444 0 0.472465
0.967041 0.215595 0.525338
1 0.634897 0.65359
1 0 0.857374
0 0 0.400351
0 0 0.391135
0.0037232 0 0.418418
0.261997 0 0.42388
0.523018 0 0.439033
0.757229 0 0.47335
0.965331 0.300359 0.528862
1 0.637552 0.652186
1 0 0.836225
0 0.160922 0.38056
0 0.176242 0.413886
0 0.185534 0.427771
0.183322 0.177279 0.42269
0.505608 0.142657 0.437644
0.75259 0.0704204 0.466575
0.960403 0.383185 0.531273
1 0.641947 0.648707
1 0 0.787488
0 0.388968 0.352834
0 0.409796 0.378149
0 0.419425 0.390112
0 0.430442 0.407248
0.421805 0.420218 0.41976
0.722744 0.428946 0.443488
0.950317 0.475761 0.514397
1 0.656123 0.619867
1 0 0.739361
0 0.588754 0.255207
0 0.602594 0.279149
0 0.613428 0.302159
0 0.633951 0.369467
0 0.647547 0.511513
0.64242 0.642924 0.431113
0.924147 0.631296 0.513527
1 0.689769 0.619974
1 0.45655 0.735759
0 0.846006 0.45388
0 0.833112 0.476722
0 0.826062 0.489326
0 0.810376 0.515221
0 0.768612 0.567956
0 0.852705 0.593683
0.846738 0.850874 0.515465
1 0.83563 0.628885
1 0.797909 0.726116
0 0.933516 0.837797
0 0.928435 0.832654
0 0.925307 0.829129
0 0.918471 0.819959
0 0.932906 0.842161
0 0.960052 0.873411
0.759075 0.978897 0.699733
0.958175 0.965957 0.766079
1 0.953216 0.801892
0 1 0.995651
0 1 0.995651
0 1 0.995651
0 1 0.995651
0 1 0.995651
0 1 0.995651
0 1 0.984131
0.843198 1 0
1 1 0.679759
0 0 0.627359
0.0415351 0 0.638163
0.185794 0 0.638987
0.346105 0 0.640055
0.548363 0 0.647364
0.75668 0 0.662654
0.967498 0 0.702754
1 0.648707 0.76643
1 0 0.918013
0 0 0.61915
0 0 0.643442
0.0417182 0 0.644495
0.298314 0 0.646326
0.537133 0 0.653346
0.75816 0 0.669306
0.964446 0.00144961 0.700877
1 0.651728 0.763485
1 0 0.877852
0 0.0146334 0.593866
0 0.00920119 0.643946
0 0.00856031 0.644831
0.27541 0.00921645 0.646784
0.528542 0 0.653651
0.755749 0 0.669413
0.962966 0.0452735 0.699519
1 0.653483 0.76228
1 0 0.856703
0 0.197787 0.586801
0 0.217182 0.608865
0 0.203586 0.637232
0.183581 0.160571 0.645975
0.504387 0.110643 0.652461
0.747051 0.0591592 0.668162
0.95906 0.172549 0.696345
1 0.656352 0.759472
1 0 0.805707
0 0.384894 0.608057
0 0.407233 0.634211
0 0.416098 0.646616
0 0.420615 0.652216
0.420661 0.408484 0.645853
0.718105 0.387121 0.661616
0.947112 0.391791 0.685237
1 0.663279 0.75172
1 0 0.820081
0 0.576059 0.5579
0 0.596597 0.579812
0 0.606851 0.590814
0 0.625925 0.611536
0 0.635294 0.628397
0.633829 0.626062 0.642741
0.912596 0.641672 0.662425
1 0.688396 0.732128
1 0.459983 0.810254
0 0.808118 0.532723
0 0.797681 0.526482
0 0.790936 0.522789
0 0.776654 0.51725
0 0.812192 0.595911
0.117189 0.835706 0.736095
0.839841 0.837308 0.662791
0.999039 0.82742 0.7364
1 0.784329 0.827024
0 0.927993 0.830884
0 0.92137 0.825177
0 0.918257 0.821958
0 0.915358 0.820676
0 0.939086 0.862791
0 0.956573 0.88809
0.751507 0.972808 0.743358
0.956298 0.961471 0.79501
1 0.945754 0.852415
0 1 0.995651
0 1 0.995651
0 1 0.995651
0 1 0.995651
0 1 0.995651
0 1 0.995651
0 1 0.986252
0.843885 1 0
0.999298 1 0.781872
0 0.0593271 0.854887
0.162371 0.0549935 0.855406
0.271565 0.0535744 0.855909
0.39968 0.0514229 0.857191
0.56466 0.0495613 0.860624
0.761334 0 0.866972
0.958404 0 0.878813
1 0.475105 0.897826
1 0 0.906294
0 0.179767 0.854826
0.0166323 0.172854 0.854871
0.17232 0.170336 0.855192
0.352377 0.167239 0.856199
0.543389 0.185 0.85951
0.751324 0.000717174 0.866026
0.953231 0 0.877638
1 0.500542 0.896864
1 0 0.925048
0 0.240833 0.854383
0 0.227817 0.854475
0.117815 0.226596 0.85478
0.327077 0.223835 0.85565
0.534203 0.240925 0.858976
0.747478 0.0430915 0.865583
0.951507 0 0.877119
1 0.51162 0.896437
1 0 0.926619
0 0.340536 0.843519
0 0.327657 0.853498
0.0267491 0.321767 0.853986
0.252552 0.319554 0.854734
0.512276 0.323995 0.857939
0.737926 0.221134 0.864378
0.946853 0.149172 0.875853
1 0.531502 0.895506
1 0 0.926101
0 0.426642 0.77734
0 0.451957 0.802899
0 0.466041 0.817838
0 0.475563 0.845762
0.442481 0.445609 0.8551
0.711131 0.422766 0.861616
0.93463 0.388861 0.873045
1 0.573739 0.892897
1 0.000198367 0.921981
0 0.595483 0.819883
0 0.612696 0.836683
0 0.620096 0.844343
0 0.632639 0.855833
0 0.627771 0.856291
0.633829 0.619165 0.854505
0.905013 0.603342 0.866865
1 0.643 0.884108
1 0.499901 0.914778
0 0.771862 0.77734
0 0.759441 0.765728
0 0.753323 0.760037
0 0.749233 0.75671
0 0.8038 0.810513
0.22089 0.82359 0.838895
0.833066 0.817761 0.852354
0.991135 0.831632 0.8701
1 0.785733 0.903044
0 0.978637 0.853605
0 0.975921 0.847562
0 0.974441 0.844373
0 0.971206 0.837568
0 0.959091 0.820432
0 0.919707 0.780148
0.576089 0.948089 0.912123
0.951049 0.949325 0.872984
1 0.937758 0.914855
0 1 0.995651
0 1 0.995651
0 1 0.995651
0 1 0.995651
0 1 0.995651
0 1 0.995636
0 1 0.98703
0.826566 1 0.775296
0.996506 0.999786 0.894987
0.278309 0.551324 0.971344
0.400046 0.552087 0.971771
0.44509 0.552377 0.971954
0.498497 0.553017 0.972274
0.613123 0.55848 0.973053
0.766934 0.589807 0.974029
0.938674 0.431281 0.979919
1 0.388388 0.985809
1 0.216922 0.994324
0.196902 0.569726 0.970642
0.348089 0.569451 0.971054
0.401648 0.569787 0.971237
0.472206 0.570413 0.971572
0.599008 0.574197 0.972366
0.760845 0.601251 0.973541
0.935195 0.466361 0.979126
1 0.433219 0.985061
1 0.300557 0.99411
0.140398 0.577432 0.97023
0.326299 0.576501 0.970703
0.379553 0.576684 0.970901
0.466346 0.577417 0.971283
0.593179 0.580774 0.972076
0.758511 0.606317 0.973297
0.934142 0.480079 0.978775
1 0.447944 0.984741
1 0.32639 0.993698
0.00523384 0.594247 0.969268
0.254917 0.591684 0.969924
0.332082 0.591165 0.970199
0.444907 0.591623 0.970657
0.579507 0.594263 0.971481
0.752087 0.616175 0.972793
0.931197 0.508476 0.978088
1 0.477424 0.984039
1 0.37911 0.992828
0 0.646601 0.966735
0 0.63447 0.966903
0 0.631037 0.967437
0.255406 0.626841 0.968551
0.530785 0.625605 0.970016
0.733013 0.638926 0.971633
0.922103 0.57203 0.976333
1 0.546929 0.982376
1 0.478828 0.99176
0 0.657664 0.934401
0 0.638834 0.928771
0 0.630045 0.925429
0 0.635493 0.92903
0 0.722972 0.960861
0.672694 0.698009 0.968292
0.898054 0.682857 0.972244
1 0.667201 0.978256
1 0.633005 0.987167
0 0.763043 0.93257
0 0.784115 0.940841
0 0.794644 0.945006
0 0.815366 0.951156
0 0.841703 0.961486
0.326436 0.836332 0.963653
0.839033 0.830381 0.964401
0.986664 0.823667 0.970214
1 0.812299 0.977813
0 0.965026 0.96202
0 0.961364 0.95967
0 0.959381 0.958404
0 0.955062 0.955627
0 0.942718 0.945266
0 0.901762 0.914702
0.625422 0.941741 0.95523
0.947173 0.937301 0.961761
1 0.934203 0.968612
0 1 0.995651
0 1 0.995651
0 1 0.995651
0 1 0.995651
0 1 0.995651
0 1 0.993973
0 1 0.977707
0.823484 0.989929 0.980804
0.991745 0.989807 0.966995
0.587564 0.830808 1
0.623789 0.830472 1
0.639261 0.830381 1
0.67602 0.830549 1
0.74696 0.83122 1
0.830716 0.834348 1
0.920882 0.852705 1
0.999054 0.750347 1
1 0.732982 1
0.567086 0.834363 1
0.607111 0.833906 1
0.624063 0.833753 1
0.657862 0.833677 1
0.737636 0.834318 1
0.827817 0.837324 1
0.919936 0.854231 1
0.998856 0.758251 1
1 0.741604 1
0.556451 0.83595 1
0.598352 0.835431 1
0.616403 0.835264 1
0.650645 0.835096 1
0.732708 0.835615 1
0.826734 0.838605 1
0.919722 0.854948 1
0.998795 0.761059 1
1 0.745144 1
0.530571 0.839384 1
0.577295 0.838743 1
0.598199 0.838514 1
0.635401 0.838193 1
0.72491 0.838437 1
0.824018 0.84126 1
0.918914 0.856306 1
0.998627 0.768093 1
1 0.752789 1
0.41062 0.848936 0.999863
0.496925 0.847974 1
0.526116 0.847562 1
0.581308 0.846876 1
0.692119 0.845838 1
0.815824 0.847898 1
0.91603 0.859495 1
0.998199 0.786908 1
1 0.772885 1
0 0.865553 0.998016
0 0.870176 0.99855
0 0.86772 0.998795
0 0.865187 0.999313
0.50454 0.86157 1
0.785794 0.858564 1
0.906264 0.865797 0.999985
0.992142 0.824613 1
1 0.812467 1
0 0.943603 0.996857
0 0.938735 0.996689
0 0.936156 0.996414
0 0.928679 0.995941
0 0.905837 0.994537
0 0.898299 0.995056
0.873091 0.887602 0.999054
0.977829 0.882673 0.999619
1 0.877409 0.999969
0 0.942916 0.990921
0 0.939101 0.990051
0 0.937011 0.989593
0 0.930999 0.988693
0 0.913008 0.985794
0 0.954513 0.992813
0.693553 0.950332 0.996017
0.951888 0.946273 0.997238
1 0.944686 0.998825
0 1 0.995651
0 1 0.995651
0 1 0.995651
0 1 0.995651
0 1 0.995651
0 1 0.995712
0 0.995819 0.988281
0.87335 0.987762 0.993393
0.990677 0.98587 0.995483
